!!!!SEGMENT: pl-cz--iii-694--001_volckmer-augusti--litaniae-lauretanae-g-kyrie.krn
!!!cenid: 17xx:1128
!!!COM: Volckmer, Augustin
!!!COM-rismID: pe30020656
!!!CDT: 1755-~1820
!!!CNT:
!!!OPR: Litaniae Lauretanae F
!!!OTL: Kyrie eleison
!!!OMV: 001
!!!PDT:
!!!AGN: Sacred; Mass
!!!SMS-siglum: PL-CZ
!!!SMS-shelfmark: III-694
!!!SMS-shelfwork: 001-001 M
!!!SMS-variant:
!!!SMS-altvar:
!!!NIFC-rismSourceID: 300001389
!!!NIFC-rismChildID: 300001389
!!!NIFC-islandoraID: pl-cz:40118
!!!URL-pdf-islandora: https://repozytorium.nifc.pl/islandora/object/pl-cz%3A40118/datastream/PDF/view
!!!URL-scan:
!!!ONB-nifc: UWAGA: części Litanii: Kyrie, Mater Christi, Salus infirmorum, Regina angelorum, Agnus Dei
!!!AIN: 1 alto 1 bass 2 clars 2 cor 1 organ 1 soprn 1 tenor 1 viola 2 violn
!!!key: G
!!!OMD:
!!!OMD-mod: Larghetto
**kern	**fba	**dynam	**kern	**dynam	**kern	**dynam	**kern	**dynam	**kern	**text	**dynam	**kern	**text	**dynam	**kern	**text	**dynam	**mod-dynam	**kern	**text	**dynam	**mod-dynam	**kern	**dynam	**kern	**dynam	**kern	**dynam	**kern	**dynam
*part12	*part12	*part12	*part11	*part11	*part10	*part10	*part9	*part9	*part8	*part8	*part8	*part7	*part7	*part7	*part6	*part6	*	*	*part5	*part5	*	*	*part4	*part4	*part3	*part3	*part2	*part2	*part1	*part1
*staff12	*	*	*staff11	*	*staff10	*	*staff9	*	*staff8	*staff8	*	*staff7	*staff7	*	*staff6	*staff6	*	*	*staff5	*staff5	*	*	*staff4	*	*staff3	*	*staff2	*	*staff1	*
*I"Organo.	*	*	*I"Viola obl:	*	*I"Violino Secundo.	*	*I"Violino Primo	*	*I"Baſso.	*	*	*I"Tenore.	*	*	*I"Alto	*	*	*	*I"Canto	*	*	*	*I"Corno Secundo in G.	*	*I"Corno Primo in G.	*	*I"Clarinetto Secundo. C Clarn:	*	*I"Clarinetto Primo. C Clarn:	*
*mI"Organo	*	*	*mI"Viola obbligato	*	*mI"Violino II	*	*mI"Violino I	*	*mI"Basso	*	*	*mI"Tenore	*	*	*	*	*	*	*mI"Soprano	*	*	*	*mI"Corno II in G	*	*mI"Corno I in G	*	*mI"Clarinetto II in C	*	*mI"Clarinetto I in C	*
*I'org	*	*	*I'vla	*	*I'vl II	*	*I'vl I	*	*I'B	*	*	*I'T	*	*	*I'A	*	*	*	*I'S	*	*	*	*I'cor II	*	*I'cor I	*	*I'cl II	*	*I'cl I	*
*	*	*	*	*	*mI'vl 2	*	*mI'vl 1	*	*	*	*	*	*	*	*	*	*	*	*	*	*	*	*mI'cor 2	*	*mI'cor 1	*	*mI'cl 2	*	*mI'cl 1	*
*ICklav	*	*	*ICstr	*	*ICstr	*	*ICstr	*	*ICvox	*	*	*ICvox	*	*	*ICvox	*	*	*	*ICvox	*	*	*	*ICbras	*	*ICbras	*	*ICww	*	*ICww	*
*Iorgan	*	*	*Iviola	*	*Ivioln	*	*Ivioln	*	*Ibass	*	*	*Itenor	*	*	*Ialto	*	*	*	*Isoprn	*	*	*	*Icor	*	*Icor	*	*Iclars	*	*Iclars	*
*clefF4	*	*	*clefC3	*	*clefG2	*	*clefG2	*	*clefF4	*	*	*clefC4	*	*	*clefC3	*	*	*	*clefC1	*	*	*	*clefG2	*	*clefG2	*	*clefG2	*	*clefG2	*
*	*	*	*	*	*	*	*	*	*	*	*	*mclefGv2	*	*	*mclefG2	*	*	*	*mclefG2	*	*	*	*	*	*	*	*	*	*	*
*	*	*	*	*	*	*	*	*	*	*	*	*	*	*	*	*	*	*	*	*	*	*	*ITrd-4c-7	*	*ITrd-4c-7	*	*	*	*	*
*k[f#]	*	*	*k[f#]	*	*k[f#]	*	*k[f#]	*	*k[f#]	*	*	*k[f#]	*	*	*k[f#]	*	*	*	*k[f#]	*	*	*	*k[f#]	*	*k[f#]	*	*k[f#]	*	*k[f#]	*
*G:	*	*	*G:	*	*G:	*	*G:	*	*G:	*	*	*G:	*	*	*G:	*	*	*	*G:	*	*	*	*G:	*	*G:	*	*G:	*	*G:	*
*M2/4	*	*	*M2/4	*	*M2/4	*	*M2/4	*	*M2/4	*	*	*M2/4	*	*	*M2/4	*	*	*	*M2/4	*	*	*	*M2/4	*	*M2/4	*	*M2/4	*	*M2/4	*
=1	=1	=1	=1	=1	=1	=1	=1	=1	=1	=1	=1	=1	=1	=1	=1	=1	=1	=1	=1	=1	=1	=1	=1	=1	=1	=1	=1	=1	=1	=1
!LO:TX:t=P:problem:all\right	!	!	!LO:TX:t=P:problem: all\right	!	!	!	!	!	!	!	!	!	!	!	!	!	!	!	!	!	!	!	!	!	!	!	!	!	!	!
!LO:MO:mod=!null:null	!	!	!	!	!	!	!	!	!	!	!	!	!	!	!	!	!	!	!	!	!	!	!	!	!	!	!	!	!	!
!LO:TX:b:t=Tutti	!	!	!LO:TX:a:B:t=Larghetto:mod=	!	!LO:TX:t=P:problem: all\right	!	!LO:TX:t=P:problem: all\right	!	!LO:TX:t=P:problem: all\right	!	!	!LO:TX:t=P:problem: all\right	!	!	!LO:TX:t=P:problem: all\right	!	!	!	!LO:TX:t=P:problem: all\right	!	!	!	!	!	!LO:TX:t=P:problem: all\right	!	!	!	!	!
!LO:TX:a:B:t=Larghetto:mod=	!	!	!	!LO:DY:b:color=red	!LO:TX:a:B:t=Largetto.:mod=	!LO:DY:b:t=forto	!LO:TX:a:B:t=Larghetto.:mod=	!LO:DY:b:t=forto	!LO:TX:a:B:t=Larghetto:mod=	!	!LO:DY:a:t=forto	!LO:TX:a:B:t=Larghetto.:mod=	!	!	!LO:TX:a:B:t=Larghetto:mod=	!	!	!	!LO:TX:a:B:t=Larghetto:mod=	!	!	!	!LO:TX:B:a:t=Largetto:mod=	!LO:DY:a:t=f.	!LO:TX:B:a:t=Largetto:mod=	!	!	!	!LO:TX:B:a:t=Largetto:mod=	!
!	!	!	!	!	!	!	!LO:SIC:s=8.gg 8.b 8.d 8.G/L:v	!	!	!	!	!	!	!	!	!	!	!	!	!	!	!	!	!	!	!	!	!	!	!
!	!	!LO:DY:t= :mod=%s	!	!	!	!	!	!	!	!	!	!	!	!LO:DY:t= :mod=%s	!	!	!	!LO:DY:t= :mod=%s	!	!	!	!LO:DY:t= :mod=%s	!	!	!	!	!	!LO:DY:t= :mod=%s	!	!LO:DY:t= :mod=%s
!	!	!LO:MO:mod=!LO&colon;DY&colon;ed=	!	!	!	!	!	!	!	!	!	!	!	!LO:MO:mod=!LO&colon;DY&colon;ed=brack	!	!	!	!LO:MO:mod=!LO&colon;DY&colon;ed=brack	!	!	!	!LO:MO:mod=!LO&colon;DY&colon;ed=brack	!	!	!	!	!	!LO:MO:mod=!LO&colon;DY&colon;ed=brack	!	!LO:MO:mod=!LO&colon;DY&colon;ed=brack
!	!	!null	!	!	!	!	!	!	!	!	!	!	!	!null	!	!	!	!null	!	!	!	!null	!	!	!	!	!	!null	!	!null
8GG/L	3	f	8d\L	f	8.bL 8.d 8.G/	f	8.gg 8.b 8.d 8.G/	f	8.G\	Ky-	f	8.d\	Ky-	f	8.g\	Ky-	.	f	8.b\	Ky-	.	f	4g/	f	4dd/	f	8.b\L	f	8.gg\L	f
8G\J	.	.	8d\J	.	.	.	.	.	.	.	.	.	.	.	.	.	.	.	.	.	.	.	.	.	.	.	.	.	.	.
!	!	!	!	!	!	!	!LO:SIC:s=(32b\:v	!	!	!	!	!	!	!	!	!	!	!	!	!	!	!	!	!	!	!	!	!	!	!
.	.	.	.	.	(32g/LL	.	(32b\LLL	.	16G\	-ri-	.	16d\	-ri-	.	16a\	-ri-	.	.	16cc\	-ri-	.	.	.	.	.	.	(32gg\LL	.	(32bb\LL	.
!	!	!	!	!	!	!	!LO:SIC:s=32cc\J):v	!	!	!	!	!	!	!	!	!	!	!	!	!	!	!	!	!	!	!	!	!	!	!
.	.	.	.	.	32a/JJJ)	.	32cc\JJJ)	.	.	.	.	.	.	.	.	.	.	.	.	.	.	.	.	.	.	.	32aa\JJJ)	.	32ccc\JJJ)	.
!	!	!	!	!	!	!	!	!	!	!LO:MO:mod=-e,	!	!	!LO:MO:mod=-e,	!	!	!LO:MO:mod=-e,	!	!	!	!LO:MO:mod=-e,	!	!	!	!	!	!	!	!	!	!
8r	.	.	8r	.	(16b/LL	.	(16dd\LL	.	8G\	-e	.	8d\	-e	.	8b\	-e	.	.	8dd\	-e	.	.	4r	.	4r	.	8bb\L	.	8ddd\L	.
.	.	.	.	.	16g/)	.	16b\)	.	.	.	.	.	.	.	.	.	.	.	.	.	.	.	.	.	.	.	.	.	.	.
!	!	!LO:DY:b:t=for:color=red	!	!	!	!	!	!	!	!	!	!	!	!	!	!	!	!	!	!	!	!	!	!	!	!	!	!	!	!
!	!	!	!	!	!	!	!	!	!	!	!	!	!	!	!LO:SIC:s=(16cc\LL:v	!	!	!	!	!	!	!	!	!	!	!	!	!	!	!
!	!	!LO:MO:mod=!null:null	!	!	!	!	!	!	!	!	!	!	!	!	!	!	!	!	!	!	!	!	!	!	!	!	!	!	!	!
8C/	6 3	f	8e\	.	(16cc/	.	(16ee\	.	8C/	e-	.	8e\	e-	.	16cc\LL	e-	.	.	(16ee\LL	e-	.	.	.	.	.	.	(16ccc\L	.	(16eee\L	.
!	!	!	!	!	!	!	!	!	!	!	!	!	!	!	!LO:SIC:s=16a\JJ):v	!	!	!	!	!	!	!	!	!	!	!	!	!	!	!
.	.	.	.	.	16a/JJ)	.	16cc\JJ)	.	.	.	.	.	.	.	16a\JJ	.	.	.	16cc\JJ)	.	.	.	.	.	.	.	16aa\JJ)	.	16ccc\JJ)	.
=2	=2	=2	=2	=2	=2	=2	=2	=2	=2	=2	=2	=2	=2	=2	=2	=2	=2	=2	=2	=2	=2	=2	=2	=2	=2	=2	=2	=2	=2	=2
!	!	!	!	!	!LO:SIC:s=8f#'/L:v	!	!	!	!	!	!	!	!	!	!	!	!	!	!	!	!	!	!	!	!	!	!	!	!	!
!	!	!	!	!	!	!	!	!	!	!	!	!	!	!	!	!	!	!	!	!	!	!	!	!	!LO:SIC:s=8aa'\L:v	!	!	!	!	!
!	!	!	!	!	!	!	!	!	!	!	!	!	!	!	!	!	!	!	!	!	!	!	!	!	!	!	!	!	!LO:SIC:s=8aa'\L:v	!
8D\L	5 3	.	8d'\L	.	8f#|/L	.	8aL 8d'/	.	4D\	-lei-	.	4d\	-lei-	.	4f#\	-lei-	.	.	4a\	-lei-	.	.	8dd'/L	.	8aa|\L	.	8ff#'\L	.	8aa\L	.
!	!	!	!	!	!LO:SIC:s=8f#'/:v	!	!	!	!	!	!	!	!	!	!	!	!	!	!	!	!	!	!	!	!	!	!	!	!	!
!	!	!	!	!	!	!	!	!	!	!	!	!	!	!	!	!	!	!	!	!	!	!	!	!	!LO:SIC:s=8aa'\:v	!	!	!	!	!
!	!	!	!	!	!	!	!	!	!	!	!	!	!	!	!	!	!	!	!	!	!	!	!	!	!	!	!	!	!LO:SIC:s=8aa'\:v	!
8D\	.	.	8d'\	.	8f#|/	.	8a 8d'/	.	.	.	.	.	.	.	.	.	.	.	.	.	.	.	8dd'/	.	8aa|\	.	8ff#'\	.	8aa\	.
!	!	!	!	!	!	!	!	!	!	!LO:MO:mod=-son.	!	!	!LO:MO:mod=-son.	!	!	!LO:MO:mod=-son.	!	!	!	!LO:MO:mod=-son.	!	!	!	!	!	!	!	!	!	!
!	!	!	!	!	!LO:SIC:s=8f#'/J:v	!	!	!	!	!	!	!	!	!	!	!	!	!	!	!	!	!	!	!	!	!	!	!	!	!
!	!	!	!	!	!	!	!	!	!	!	!	!	!	!	!	!	!	!	!	!	!	!	!	!	!LO:SIC:s=8aa'\J:v	!	!	!	!	!
!	!	!	!	!	!	!	!	!	!	!	!	!	!	!	!	!	!	!	!	!	!	!	!	!	!	!	!	!	!LO:SIC:s=8aa'\J:v	!
8D\J	.	.	8d'\J	.	8f#|/J	.	8aJ 8d'/	.	8D\	-son	.	8d\	-son	.	8f#\	-son	.	.	8a\	-son	.	.	8dd'/J	.	8aa\J	.	8ff#'\J	.	8aa\J	.
16r	.	.	16r	.	16r	.	16r	.	16r	.	.	16r	.	.	16r	.	.	.	16r	.	.	.	8r	.	8r	.	16r	.	16r	.
!	!	!	!	!	!	!	!	!	!	!	!	!LO:SIC:s=16e\:v	!	!	!	!	!	!	!	!	!	!	!	!	!	!	!	!	!	!
16E\	5 3	.	16e\	.	16g/	.	16b\	.	16E\	Chri-	.	16d\	Chri-	.	16g\	Chri-	.	.	16b\	Chri-	.	.	.	.	.	.	16gg\	.	16bb\	.
=3	=3	=3	=3	=3	=3	=3	=3	=3	=3	=3	=3	=3	=3	=3	=3	=3	=3	=3	=3	=3	=3	=3	=3	=3	=3	=3	=3	=3	=3	=3
!	!	!	!	!	!	!	!	!	!	!LO:MO:mod=-ste,	!	!	!LO:MO:mod=-ste,	!	!	!LO:MO:mod=-ste,	!	!	!	!LO:MO:mod=-ste,	!	!	!	!	!	!	!	!	!	!
8C/L	6	.	8.c\L	.	8.e/L	.	8.cc\L	.	8.C/	-ste	.	8.e\	-ste	.	8.a\	-ste	.	.	8.cc\	-ste	.	.	4r	.	4r	.	8.ee\L	.	8.ccc\L	.
8AA/	.	.	.	.	.	.	.	.	.	.	.	.	.	.	.	.	.	.	.	.	.	.	.	.	.	.	.	.	.	.
.	.	.	16e\Jk	.	16c/Jk	.	16a\Jk	.	16AA/	e-	.	16c\	e-	.	16a\	e-	.	.	16a\	e-	.	.	.	.	.	.	16ee\Jk	.	16ccc\Jk	.
8D/	4	.	8d\L	.	(16d/LL	.	(16b/LL	.	4D\	-lei-	.	(>16d\LL	-lei-	.	4d\	-lei-	.	.	(16b\LL	-lei-	.	.	8gg\L	.	8bb\L	.	8gg\L	.	8bb\L	.
.	.	.	.	.	16c/	.	16a/	.	.	.	.	16c\	.	.	.	.	.	.	16a\	.	.	.	.	.	.	.	.	.	.	.
8DD/J	3	.	8d\J	.	16B/	.	16g/	.	.	.	.	16B\	.	.	.	.	.	.	16g\	.	.	.	8dd\J	.	8aa\J	.	8ff#\J	.	8aa\J	.
.	.	.	.	.	16A/JJ)	.	16f#/JJ)	.	.	.	.	16A\JJ)	.	.	.	.	.	.	16f#\JJ)	.	.	.	.	.	.	.	.	.	.	.
=4	=4	=4	=4	=4	=4	=4	=4	=4	=4	=4	=4	=4	=4	=4	=4	=4	=4	=4	=4	=4	=4	=4	=4	=4	=4	=4	=4	=4	=4	=4
!	!	!	!	!	!	!LO:DY:b:t=piano	!	!LO:DY:b:t=piano	!	!	!	!	!	!	!	!	!	!	!	!	!	!	!	!	!	!	!	!	!	!
!	!	!	!	!	!	!	!	!	!	!LO:MO:mod=-son.	!	!	!LO:MO:mod=-son.	!	!	!LO:MO:mod=-son.	!	!	!	!LO:MO:mod=-son.	!	!	!	!	!	!	!	!	!	!
!	!	!	!	!	!LO:SIC:s=16B'/LL:v	!	!	!	!	!	!	!	!	!	!	!	!	!	!	!	!	!	!	!	!	!	!	!	!	!
4GG/	.	.	4d\	.	16B/LL	p	16g'/LL	p	4G\	-son	.	4B\	-son	.	4d\	-son	.	.	4g\	-son	.	.	4b/	.	4gg\	.	4gg\	.	4gg\	.
!	!	!	!	!	!LO:SIC:s=16g'/:v	!	!	!	!	!	!	!	!	!	!	!	!	!	!	!	!	!	!	!	!	!	!	!	!	!
.	.	.	.	.	16g|/	.	16g'/	.	.	.	.	.	.	.	.	.	.	.	.	.	.	.	.	.	.	.	.	.	.	.
!	!	!	!	!	!LO:SIC:s=16f#'/:v	!	!	!	!	!	!	!	!	!	!	!	!	!	!	!	!	!	!	!	!	!	!	!	!	!
.	.	.	.	.	16f#|/	.	16a'/	.	.	.	.	.	.	.	.	.	.	.	.	.	.	.	.	.	.	.	.	.	.	.
!	!	!	!	!	!LO:SIC:s=16fn'/JJ:v	!	!	!	!	!	!	!	!	!	!	!	!	!	!	!	!	!	!	!	!	!	!	!	!	!
.	.	.	.	.	16fn|/JJ	.	16b'/JJ	.	.	.	.	.	.	.	.	.	.	.	.	.	.	.	.	.	.	.	.	.	.	.
!	!	!	!	!	!LO:SIC:s=16e'/LL:v	!	!	!	!	!	!	!	!	!	!	!	!	!	!	!	!	!	!	!	!	!	!	!	!	!
4r	.	.	4r	.	16e|/LL	.	16cc'\LL	.	4r	.	.	4r	.	.	4r	.	.	.	4r	.	.	.	4r	.	4r	.	4r	.	4r	.
!	!	!	!	!	!LO:SIC:s=16B'/:v	!	!	!	!	!	!	!	!	!	!	!	!	!	!	!	!	!	!	!	!	!	!	!	!	!
.	.	.	.	.	16B|/	.	16dd'\	.	.	.	.	.	.	.	.	.	.	.	.	.	.	.	.	.	.	.	.	.	.	.
!	!	!	!	!	!LO:SIC:s=16c'/:v	!	!	!	!	!	!	!	!	!	!	!	!	!	!	!	!	!	!	!	!	!	!	!	!	!
.	.	.	.	.	16c|/	.	16ee'\	.	.	.	.	.	.	.	.	.	.	.	.	.	.	.	.	.	.	.	.	.	.	.
!	!	!	!	!	!LO:SIC:s=16A'/JJ:v	!	!	!	!	!	!	!	!	!	!	!	!	!	!	!	!	!	!	!	!	!	!	!	!	!
.	.	.	.	.	16A|/JJ	.	16ff#'\JJ	.	.	.	.	.	.	.	.	.	.	.	.	.	.	.	.	.	.	.	.	.	.	.
=5	=5	=5	=5	=5	=5	=5	=5	=5	=5	=5	=5	=5	=5	=5	=5	=5	=5	=5	=5	=5	=5	=5	=5	=5	=5	=5	=5	=5	=5	=5
!	!	!	!	!	!	!	!	!	!LO:MO:mod=!null:null	!	!	!LO:MO:mod=!null:null	!	!	!LO:MO:mod=!null:null	!	!	!	!LO:MO:mod=!null:null	!	!	!	!	!	!	!	!	!	!	!
!LO:MO:mod=!null:null	!	!	!	!	!	!	!	!	!	!	!	!	!	!	!	!	!	!	!	!	!	!	!	!	!	!	!	!	!	!
!	!	!	!	!	!	!	!	!	!	!	!	!	!	!	!	!	!	!	!	!	!	!	!LO:MO:mod=!null:null	!	!	!	!	!	!	!
!	!	!	!	!	!	!	!	!	!	!	!	!	!	!	!	!	!	!	!	!	!	!	!	!	!	!	!LO:MO:mod=!null:null	!	!LO:MO:mod=!null:null	!
!LO:TX:a:t=1	!	!	!	!LO:DY:b:t=pia:color=red	!	!	!	!	!LO:TX:a:t=1	!	!	!LO:TX:a:t=1	!	!	!LO:TX:a:t=1	!	!	!	!LO:TX:a:t=1	!	!	!	!LO:TX:a:t=1	!	!	!	!LO:TX:a:t=1	!	!LO:TX:a:t=1	!
2r	.	.	8G/L	p	(16B/LL	.	(32aa\LLL	.	2r	.	.	2r	.	.	2r	.	.	.	2r	.	.	.	2r	.	8g/	.	2r	.	2r	.
.	.	.	.	.	.	.	32gg\	.	.	.	.	.	.	.	.	.	.	.	.	.	.	.	.	.	.	.	.	.	.	.
.	.	.	.	.	16g/	.	32ff#\	.	.	.	.	.	.	.	.	.	.	.	.	.	.	.	.	.	.	.	.	.	.	.
.	.	.	.	.	.	.	32gg\JJJ)	.	.	.	.	.	.	.	.	.	.	.	.	.	.	.	.	.	.	.	.	.	.	.
.	.	.	8e\J	.	(16c/)	.	(32ff#\LLL	.	.	.	.	.	.	.	.	.	.	.	.	.	.	.	.	.	8r	.	.	.	.	.
.	.	.	.	.	.	.	32ee\	.	.	.	.	.	.	.	.	.	.	.	.	.	.	.	.	.	.	.	.	.	.	.
.	.	.	.	.	16g/JJ	.	32dd\	.	.	.	.	.	.	.	.	.	.	.	.	.	.	.	.	.	.	.	.	.	.	.
.	.	.	.	.	.	.	32cc\JJJ)	.	.	.	.	.	.	.	.	.	.	.	.	.	.	.	.	.	.	.	.	.	.	.
.	.	.	8d\L	.	(16d/LL)	.	8b\L	.	.	.	.	.	.	.	.	.	.	.	.	.	.	.	.	.	8dd/L	.	.	.	.	.
.	.	.	.	.	16g/	.	.	.	.	.	.	.	.	.	.	.	.	.	.	.	.	.	.	.	.	.	.	.	.	.
.	.	.	8d\J	.	(16d/)	.	8a\J	.	.	.	.	.	.	.	.	.	.	.	.	.	.	.	.	.	8d/J	.	.	.	.	.
.	.	.	.	.	16f#/JJ)	.	.	.	.	.	.	.	.	.	.	.	.	.	.	.	.	.	.	.	.	.	.	.	.	.
!LO:LB:g=original	!	!	!	!	!LO:LB:g=original	!	!LO:LB:g=original	!	!	!	!	!	!	!	!	!	!	!	!	!	!	!	!	!	!	!	!	!	!	!
=6	=6	=6	=6	=6	=6	=6	=6	=6	=6	=6	=6	=6	=6	=6	=6	=6	=6	=6	=6	=6	=6	=6	=6	=6	=6	=6	=6	=6	=6	=6
!	!	!	!	!LO:DY:b:t=pi:color=red	!	!LO:DY:a:t=forto	!	!LO:DY:b:t=fort	!	!	!	!	!	!	!	!	!	!	!	!	!	!	!	!	!	!	!	!	!	!
!	!	!	!	!LO:MO:mod=f	!	!	!	!	!	!	!	!	!	!	!	!	!	!	!	!	!	!	!	!	!	!	!	!	!	!
8GG/L	.	.	8d\L	p	8.bL 8.d 8.G/	f	8.ggL 8.b 8.d 8.G/	f	8.G\	Ky-	.	8.d\	Ky-	.	8.g\	Ky-	.	.	8.b\	Ky-	.	.	4dd/	.	4g/	.	8.b\L	.	8.gg\L	.
8G\J	.	.	8d\J	.	.	.	.	.	.	.	.	.	.	.	.	.	.	.	.	.	.	.	.	.	.	.	.	.	.	.
.	.	.	.	.	(32g/LL	.	(32b/LL	.	16G\	-ri-	.	16d\	-ri-	.	16a\	-ri-	.	.	16cc\	-ri-	.	.	.	.	.	.	(32gg\LL	.	(32bb\LL	.
.	.	.	.	.	32a/JJJ)	.	32cc/JJJ)	.	.	.	.	.	.	.	.	.	.	.	.	.	.	.	.	.	.	.	32aa\JJJ)	.	32ccc\JJJ)	.
!	!	!	!	!	!	!	!	!	!	!LO:MO:mod=-e,	!	!	!LO:MO:mod=-e,	!	!	!LO:MO:mod=-e,	!	!	!	!LO:MO:mod=-e,	!	!	!	!	!	!	!	!	!	!
8r	.	.	8r	.	(16b\LL	.	(16dd\LL	.	8G\	-e	.	8d\	-e	.	8b\	-e	.	.	8dd\	-e	.	.	4r	.	4r	.	(16bb\LL	.	(16ddd\LL	.
.	.	.	.	.	16g\)	.	16b\)	.	.	.	.	.	.	.	.	.	.	.	.	.	.	.	.	.	.	.	16gg\)	.	16bb\)	.
!	!	!	!	!	!	!	!	!	!	!	!	!	!	!	!	!	!	!	!LO:LB:g=original	!	!	!	!	!	!	!	!	!	!	!
!	!	!	!	!	!	!	!	!	!	!	!	!	!	!	!	!	!	!	!	!	!	!	!	!	!	!	!	!	!LO:SIC:s=(16eee\:v	!
8C/	.	.	8e\	.	(16cc\	.	(16ee\	.	8C/	e-	.	8e\	e-	.	16cc\LL	e-	.	.	16ee\LL	e-	.	.	.	.	.	.	(16ccc\	.	(16ddd\	.
.	.	.	.	.	16a\JJ)	.	16cc\JJ)	.	.	.	.	.	.	.	16a\JJ	.	.	.	16cc\JJ	.	.	.	.	.	.	.	16aa\JJ)	.	16ccc\JJ)	.
!	!	!	!LO:LB:g=original	!	!	!	!	!	!	!	!	!	!	!	!LO:LB:g=original	!	!	!	!	!	!	!	!	!	!	!	!	!	!LO:LB:g=original	!
=7	=7	=7	=7	=7	=7	=7	=7	=7	=7	=7	=7	=7	=7	=7	=7	=7	=7	=7	=7	=7	=7	=7	=7	=7	=7	=7	=7	=7	=7	=7
!	!	!	!	!	!LO:SIC:s=8f#'/L:v	!	!	!	!	!	!	!	!	!	!	!	!	!	!	!	!	!	!	!	!	!	!	!	!	!
!	!	!	!	!	!	!	!	!	!	!	!	!	!	!	!	!	!	!	!	!	!	!	!	!	!	!	!LO:SIC:s=8ff#'\L:v	!	!	!
8D\L	.	.	8d'\L	.	8f#/L	.	8aL 8d'/	.	4D\	-lei-	.	4d\	-lei-	.	4f#\	-lei-	.	.	4a\	-lei-	.	.	8dd'/L	.	8aa'\L	.	8ff#\L	.	8ccc'\L	.
!	!	!	!	!	!LO:SIC:s=8f#'/:v	!	!	!	!	!	!	!	!	!	!	!	!	!	!	!	!	!	!	!	!	!	!	!	!	!
!	!	!	!	!	!	!	!	!	!	!	!	!	!	!	!	!	!	!	!	!	!	!	!	!	!	!	!LO:SIC:s=8ff#'\:v	!	!	!
8D\	.	.	8d'\	.	8f#/	.	8a 8d'/	.	.	.	.	.	.	.	.	.	.	.	.	.	.	.	8dd'/	.	8aa'\	.	8ff#\	.	8ccc'\	.
!	!	!	!	!	!	!	!	!	!	!LO:MO:mod=-son,	!	!	!LO:MO:mod=-son,	!	!	!LO:MO:mod=-son,	!	!	!	!LO:MO:mod=-son,	!	!	!	!	!	!	!	!	!	!
!	!	!	!	!	!LO:SIC:s=8f#'/J:v	!	!	!	!	!	!	!	!	!	!	!	!	!	!	!	!	!	!	!	!	!	!	!	!	!
!	!	!	!	!	!	!	!	!	!	!	!	!	!	!	!	!	!	!	!	!	!	!	!	!	!	!	!LO:SIC:s=8ff#'\J:v	!	!	!
8D\J	.	.	8d'\J	.	8f#/J	.	8aJ 8d'/	.	8D\	-son	.	8d\	-son	.	8f#\	-son	.	.	8a\	-son	.	.	8dd'/J	.	8aa'\J	.	8ff#\J	.	8ccc'\J	.
16r	.	.	16r	.	16r	.	16r	.	8r	.	.	8r	.	.	8r	.	.	.	8r	.	.	.	8r	.	8r	.	16r	.	16r	.
16E\	.	.	16e\	.	16g/	.	16b\	.	.	.	.	.	.	.	.	.	.	.	.	.	.	.	.	.	.	.	16gg\	.	16bb\	.
!	!	!	!	!	!	!	!	!	!	!	!	!LO:LB:g=original	!	!	!	!	!	!	!	!	!	!	!	!	!	!	!LO:LB:g=original	!	!	!
=8	=8	=8	=8	=8	=8	=8	=8	=8	=8	=8	=8	=8	=8	=8	=8	=8	=8	=8	=8	=8	=8	=8	=8	=8	=8	=8	=8	=8	=8	=8
8C/L	.	.	8.c\L	.	8.e/L	.	8.cc\L	.	8r	.	.	8r	.	.	8r	.	.	.	8r	.	.	.	4r	.	4r	.	8.ee\L	.	8.ccc\L	.
8AA/	.	.	.	.	.	.	.	.	16r	.	.	16r	.	.	16r	.	.	.	16r	.	.	.	.	.	.	.	.	.	.	.
.	.	.	16e\Jk	.	16c/Jk	.	16a\Jk	.	16E\	e-	.	16c\	e-	.	16e\	e-	.	.	16a\	e-	.	.	.	.	.	.	16aa\Jk	.	16ccc\Jk	.
!	!	!	!	!	!	!	!	!	!LO:LB:g=original	!	!	!	!	!	!	!	!	!	!	!	!	!	!	!	!	!	!	!	!	!
8D/	.	.	8d\L	.	(16d/LL	.	(16b/LL	.	4D\	-lei-	.	16d\LL	-lei-	.	4d\	-lei-	.	.	16b\LL	-lei-	.	.	8gg\L	.	8bb\L	.	8gg\L	.	8bb\L	.
.	.	.	.	.	16c/	.	16a/	.	.	.	.	16c\	.	.	.	.	.	.	16a\	.	.	.	.	.	.	.	.	.	.	.
8DD/J	.	.	8d\J	.	16B/	.	16g/	.	.	.	.	16B\	.	.	.	.	.	.	16g\	.	.	.	8dd\J	.	8aa\J	.	8ff#\J	.	8aa\J	.
.	.	.	.	.	16A/JJ)	.	16f#/JJ)	.	.	.	.	16A\JJ	.	.	.	.	.	.	16f#\JJ	.	.	.	.	.	.	.	.	.	.	.
=9	=9	=9	=9	=9	=9	=9	=9	=9	=9	=9	=9	=9	=9	=9	=9	=9	=9	=9	=9	=9	=9	=9	=9	=9	=9	=9	=9	=9	=9	=9
!	!	!LO:DY:b:t=pia:color=red	!	!LO:DY:b:t=pia:color=red	!	!	!	!	!	!	!	!	!	!	!	!	!	!	!	!	!	!	!	!	!	!LO:DY:a:t=pia	!	!	!	!
!	!	!	!	!	!	!	!	!	!	!LO:MO:mod=-son.	!	!	!LO:MO:mod=-son.	!	!	!LO:MO:mod=-son.	!	!	!	!LO:MO:mod=-son.	!	!	!	!	!	!	!	!	!	!
!	!	!	!	!	!	!	!	!	!	!	!	!	!	!	!	!	!	!	!	!	!	!	!	!LO:DY:t= :mod=%s	!	!	!	!	!	!
!	!	!	!	!	!	!	!	!	!	!	!	!	!	!	!	!	!	!	!	!	!	!	!	!LO:MO:mod=!LO&colon;DY&colon;ed=	!	!	!	!	!	!
!	!	!	!	!	!	!	!	!	!	!	!	!	!	!	!	!	!	!	!	!	!	!	!	!null	!	!	!	!	!	!
(8GG/L	.	p	16G/LL	p	4B/	.	4g/	.	4G\	-son	.	4B\	-son	.	4d\	-son	.	.	4g\	-son	.	.	4b/	p	4gg\	p	4gg\	.	4gg\	.
.	.	.	(16g\	.	.	.	.	.	.	.	.	.	.	.	.	.	.	.	.	.	.	.	.	.	.	.	.	.	.	.
8G\)	.	.	16G/	.	.	.	.	.	.	.	.	.	.	.	.	.	.	.	.	.	.	.	.	.	.	.	.	.	.	.
.	.	.	16g\JJ)	.	.	.	.	.	.	.	.	.	.	.	.	.	.	.	.	.	.	.	.	.	.	.	.	.	.	.
!	!	!	!	!	!	!	!	!	!	!	!	!	!	!	!	!	!	!	!	!	!	!	!	!LO:DY:a:t=pia	!LO:LB:g=original	!	!	!	!	!
!	!	!	!	!	!	!	!	!	!	!	!	!	!	!	!	!	!	!	!	!	!	!	!	!LO:MO:mod=!null:null	!	!	!	!	!	!
!	!	!	!	!	!	!	!	!	!	!	!	!	!	!	!	!	!	!	!	!	!	!	!	!	!LO:SIC:s=8gg'\L:v	!	!	!	!	!
(8GG/	.	.	16G/LL	.	8r	.	8r	.	4r	.	.	4r	.	.	4r	.	.	.	4r	.	.	.	8g'/L	p	8gg\L	.	4r	.	4r	.
.	.	.	(16g\	.	.	.	.	.	.	.	.	.	.	.	.	.	.	.	.	.	.	.	.	.	.	.	.	.	.	.
!	!	!	!	!	!	!LO:DY:a:t=piano	!	!LO:DY:b:t=piano	!	!	!	!	!	!	!	!	!	!	!	!	!	!	!	!	!	!	!	!	!	!
!	!	!	!	!	!	!	!	!	!	!	!	!	!	!	!	!	!	!	!	!	!	!	!	!	!LO:SIC:s=8gg'\J:v	!	!	!	!	!
8G\J)	.	.	16G/	.	8d/	p	8fn/	p	.	.	.	.	.	.	.	.	.	.	.	.	.	.	8g'/J	.	8gg\J	.	.	.	.	.
.	.	.	16g\JJ)	.	.	.	.	.	.	.	.	.	.	.	.	.	.	.	.	.	.	.	.	.	.	.	.	.	.	.
!	!	!	!	!	!	!	!	!	!	!	!	!	!	!	!	!	!	!	!	!	!	!	!LO:LB:g=original	!	!	!	!	!	!	!
=10	=10	=10	=10	=10	=10	=10	=10	=10	=10	=10	=10	=10	=10	=10	=10	=10	=10	=10	=10	=10	=10	=10	=10	=10	=10	=10	=10	=10	=10	=10
*	*	*	*	*	*	*	*	*	*	*	*	*	*	*	*	*	*	*	*	*	*	*	*	*	*2\right	*	*	*	*	*
!	!	!	!	!	!	!	!	!	!	!	!	!	!	!	!	!	!	!	!	!	!	!	!	!	!	!	!LO:MO:mod=!null:null	!	!LO:MO:mod=!null:null	!
!	!	!	!	!	!	!	!	!	!	!	!	!	!	!	!	!	!	!	!	!	!	!	!	!	!	!	!LO:TX:a:t=3.	!	!LO:TX:a:t=3	!
!	!	!	!	!	!	!	!	!	!	!	!	!	!	!	!	!	!	!	!	!	!	!	!	!	!	!	!LO:MO:mod=!null:null	!	!LO:MO:mod=!null:null	!
!	!	!	!	!	!	!	!	!	!	!	!	!	!	!	!	!	!	!	!	!	!	!	!	!	!	!	!LO:N:vis=0	!	!LO:N:vis=0	!
(8GG/L	.	.	16G/LL	.	(16B/LL	.	(16d#X/LL	.	4c\	Chri-	.	4G/	Chri-	.	4c\	Chri-	.	.	4e/	Chri-	.	.	2g/	.	2gg\	.	1.r	.	1.r	.
.	.	.	(16g\	.	16c/)	.	16e/)	.	.	.	.	.	.	.	.	.	.	.	.	.	.	.	.	.	.	.	.	.	.	.
!	!	!	!	!	!	!	!LO:SIC:s=16e'/:v	!	!	!	!	!	!	!	!	!	!	!	!	!	!	!	!	!	!	!	!	!	!	!
8G\)	.	.	16G/	.	16c'/	.	16e|/	.	.	.	.	.	.	.	.	.	.	.	.	.	.	.	.	.	.	.	.	.	.	.
!	!	!	!	!	!	!	!LO:SIC:s=16e'/JJ:v	!	!	!	!	!	!	!	!	!	!	!	!	!	!	!	!	!	!	!	!	!	!	!
.	.	.	16g\JJ)	.	16c'/JJ	.	16e|/JJ	.	.	.	.	.	.	.	.	.	.	.	.	.	.	.	.	.	.	.	.	.	.	.
!	!	!	!	!	!	!	!	!	!	!LO:MO:mod=-ste,	!	!	!LO:MO:mod=-ste,	!	!	!LO:MO:mod=-ste,	!	!	!	!LO:MO:mod=-ste,	!	!	!	!	!	!	!	!	!	!
(8GG/	.	.	16G/LL	.	(16c/LL	.	(16e/LL	.	4A\	-ste	.	4G/	-ste	.	4c\	-ste	.	.	4f#/	-ste	.	.	.	.	.	.	.	.	.	.
.	.	.	(16g\	.	16A/)	.	16f#X/)	.	.	.	.	.	.	.	.	.	.	.	.	.	.	.	.	.	.	.	.	.	.	.
!	!	!	!	!	!	!	!LO:SIC:s=16f#'/:v	!	!	!	!	!	!	!	!	!	!	!	!	!	!	!	!	!	!	!	!	!	!	!
8G\J)	.	.	16G/	.	16A'/	.	16f#|/	.	.	.	.	.	.	.	.	.	.	.	.	.	.	.	.	.	.	.	.	.	.	.
!	!	!	!	!	!	!	!LO:SIC:s=16f#'/JJ:v	!	!	!	!	!	!	!	!	!	!	!	!	!	!	!	!	!	!	!	!	!	!	!
.	.	.	16g\JJ)	.	16A'/JJ	.	16f#|/JJ	.	.	.	.	.	.	.	.	.	.	.	.	.	.	.	.	.	.	.	.	.	.	.
=11	=11	=11	=11	=11	=11	=11	=11	=11	=11	=11	=11	=11	=11	=11	=11	=11	=11	=11	=11	=11	=11	=11	=11	=11	=11	=11	=11	=11	=11	=11
!	!	!	!	!	!	!	!	!	!	!	!	!	!	!	!	!LO:MO:mod=au-	!	!	!	!	!	!	!	!	!	!	!	!	!	!
(8GG/L	.	.	16G/LL	.	(16B/LL	.	(16g/LL	.	16B\LL	au-	.	8G/	au-	.	8d\	e-	.	.	16g/LL	au-	.	.	8g'/L	.	8gg'\L	.	.	.	.	.
.	.	.	(16g\	.	16A/	.	16f#/	.	16A\JJ	.	.	.	.	.	.	.	.	.	16f#/JJ	.	.	.	.	.	.	.	.	.	.	.
!	!	!	!	!	!	!	!	!	!	!LO:MO:mod=-di	!	!	!LO:MO:mod=-di	!	!	!LO:MO:mod=-di	!	!	!	!LO:MO:mod=-di	!	!	!	!	!	!	!	!	!	!
8G\)	.	.	16G/	.	16B/	.	16g/	.	16B\LL	-di-	.	8G/	-di-	.	8g\	-lei-	.	.	16g/LL	-di-	.	.	8g'/	.	8gg'\	.	.	.	.	.
.	.	.	16g\JJ)	.	16c/JJ)	.	16a/JJ)	.	16c\JJ	.	.	.	.	.	.	.	.	.	16a/JJ	.	.	.	.	.	.	.	.	.	.	.
!	!	!	!	!	!	!	!	!	!	!LO:MO:mod=nos.	!	!	!LO:MO:mod=nos.	!	!	!LO:MO:mod=nos.	!	!	!	!LO:MO:mod=nos.	!	!	!	!	!	!	!	!	!	!
(8GG/	.	.	16G/LL	.	8d/L	.	8b/L	.	8d\	-nos	.	8G/	-nos	.	8g\	-son	.	.	8b\	-nos	.	.	8g'/	.	8gg'\	.	.	.	.	.
.	.	.	(16g\	.	.	.	.	.	.	.	.	.	.	.	.	.	.	.	.	.	.	.	.	.	.	.	.	.	.	.
8G\J)	.	.	16G/	.	8B/J	.	8g/J	.	8r	.	.	8r	.	.	8r	.	.	.	8r	.	.	.	8g'/J	.	8gg'\J	.	.	.	.	.
.	.	.	16g\JJ)	.	.	.	.	.	.	.	.	.	.	.	.	.	.	.	.	.	.	.	.	.	.	.	.	.	.	.
=12	=12	=12	=12	=12	=12	=12	=12	=12	=12	=12	=12	=12	=12	=12	=12	=12	=12	=12	=12	=12	=12	=12	=12	=12	=12	=12	=12	=12	=12	=12
!	!	!	!	!	!	!	!	!	!	!	!	!	!LO:MO:mod=Chri-	!	!	!	!	!	!	!	!	!	!	!	!	!	!	!	!	!
(8GG/L	.	.	16G/LL	.	(16B/LL	.	(16d#X/LL	.	4c\	Chri-	.	4G/	X-	.	4c\	Chri-	.	.	4e/	Chri-	.	.	2g/	.	2gg\	.	.	.	.	.
.	.	.	(16g\	.	16c/)	.	16e/)	.	.	.	.	.	.	.	.	.	.	.	.	.	.	.	.	.	.	.	.	.	.	.
8G\)	.	.	16G/	.	16c'/	.	16e'/	.	.	.	.	.	.	.	.	.	.	.	.	.	.	.	.	.	.	.	.	.	.	.
.	.	.	16g\JJ)	.	16c'/JJ	.	16e'/JJ	.	.	.	.	.	.	.	.	.	.	.	.	.	.	.	.	.	.	.	.	.	.	.
!	!	!	!	!	!	!	!	!	!	!LO:MO:mod=-ste,	!	!	!LO:MO:mod=-ste,	!	!	!LO:MO:mod=-ste,	!	!	!	!LO:MO:mod=-ste,	!	!	!	!	!	!	!	!	!	!
(8GG/	.	.	16G/LL	.	(16c/LL	.	(16e/LL	.	8A\	-ste	.	8G/	-te	.	8c\	-ste	.	.	8f#/	-ste	.	.	.	.	.	.	.	.	.	.
.	.	.	(16g\	.	16A/)	.	16f#X/)	.	.	.	.	.	.	.	.	.	.	.	.	.	.	.	.	.	.	.	.	.	.	.
!	!	!	!	!	!	!	!	!	!	!	!	!	!	!	!	!	!	!	!	!LO:MO:mod=ex-	!	!	!	!	!	!	!	!	!	!
!	!	!	!	!	!	!	!	!	!	!LO:MO:mod=ex-	!	!	!	!	!	!	!	!	!	!	!	!	!	!	!	!	!	!	!	!
8G\J)	.	.	16G/	.	16A'/	.	16f#'/	.	8A\	ex	.	8G/	ex-	.	8c\	ex-	.	.	8f#/	ex	.	.	.	.	.	.	.	.	.	.
.	.	.	16g\JJ)	.	16A'/JJ	.	16f#'/JJ	.	.	.	.	.	.	.	.	.	.	.	.	.	.	.	.	.	.	.	.	.	.	.
=13	=13	=13	=13	=13	=13	=13	=13	=13	=13	=13	=13	=13	=13	=13	=13	=13	=13	=13	=13	=13	=13	=13	=13	=13	=13	=13	=13	=13	=13	=13
!	!	!	!	!	!	!	!	!	!	!	!	!	!	!	!	!	!	!	!	!LO:MO:mod=-au-	!	!	!	!	!	!	!	!	!	!
!	!	!	!	!	!	!	!	!	!	!LO:MO:mod=-au-	!	!	!	!	!	!	!	!	!	!	!	!	!	!	!	!	!	!	!	!
!	!	!	!	!	!LO:SIC:s=(16B/LL:v	!	!	!	!	!	!	!	!	!	!	!	!	!	!	!	!	!	!	!	!	!	!	!	!	!
!	!	!	!	!	!	!	!	!	!	!	!	!	!	!	!	!	!	!	!	!	!	!	!	!	!LO:SIC:s=8gg'\L:v	!	!	!	!	!
8GG\L	.	.	16G/LL	.	16B/LL	.	(16g/LL	.	16B\LL	au-	.	8G/	-au-	.	8d\	-au-	.	.	16g\LL	au-	.	.	8g'/L	.	8gg\L	.	4r	.	4r	.
.	.	.	(16g\	.	16A/	.	16f#/	.	16A\JJ	.	.	.	.	.	.	.	.	.	16f#\JJ	.	.	.	.	.	.	.	.	.	.	.
!	!	!	!	!	!	!	!	!	!	!LO:MO:mod=-di	!	!	!LO:MO:mod=-di	!	!	!LO:MO:mod=-di	!	!	!	!LO:MO:mod=-di	!	!	!	!	!	!	!	!	!	!
!	!	!	!	!	!LO:SIC:s=16B)/:v	!	!	!	!	!	!	!	!	!	!	!	!	!	!	!	!	!	!	!	!	!	!	!	!	!
!	!	!	!	!	!	!	!	!	!	!	!	!	!	!	!	!	!	!	!	!	!	!	!	!	!LO:SIC:s=8gg'\:v	!	!	!	!	!
8G\	.	.	16G/	.	16B/	.	16g/)	.	16B\LL	-di-	.	8G/	-di-	.	8g\	-di-	.	.	16g\LL	-di-	.	.	8g'/	.	8gg\	.	.	.	.	.
!	!	!	!	!	!LO:SIC:s=16c|/JJ:v	!	!	!	!	!	!	!	!	!	!	!	!	!	!	!	!	!	!	!	!	!	!	!	!	!
.	.	.	16g\JJ)	.	16c/JJ	.	16a|/JJ	.	16c\JJ	.	.	.	.	.	.	.	.	.	16a\JJ	.	.	.	.	.	.	.	.	.	.	.
!	!	!	!	!	!	!	!	!	!	!LO:MO:mod=nos,	!	!	!LO:MO:mod=nos,	!	!	!LO:MO:mod=nos,	!	!	!	!LO:MO:mod=nos,	!	!	!	!	!	!	!	!	!	!
!	!	!	!	!	!LO:SIC:s=16d'/LL:v	!	!	!	!	!	!	!	!	!	!	!	!	!	!	!	!	!	!	!	!	!	!	!	!	!
!	!	!	!	!	!	!	!	!	!	!	!	!	!	!	!	!	!	!	!	!	!	!	!	!	!LO:SIC:s=8gg'\J:v	!	!	!	!	!
8GG\J	.	.	8G/	.	16d/LL	.	16b'/LL	.	8d\	-nos	.	8G/	-nos	.	8g\	-nos	.	.	8b\	-nos	.	.	8g'/J	.	8gg\J	.	16r	.	16r	.
!	!	!	!	!	!LO:SIC:s=16g'/:v	!	!	!	!	!	!	!	!	!	!	!	!	!	!	!	!	!	!	!	!	!	!	!	!	!
.	.	.	.	.	16g/	.	16g'/	.	.	.	.	.	.	.	.	.	.	.	.	.	.	.	.	.	.	.	16gg'\LL	.	16gg'\LL	.
!	!	!	!	!	!LO:SIC:s=16f#'/:v	!	!	!	!	!	!	!	!	!	!	!	!	!	!	!	!	!	!	!	!	!	!	!	!	!
8r	.	.	8r	.	16f#/	.	16a'/	.	8r	.	.	8r	.	.	8r	.	.	.	8r	.	.	.	8r	.	8r	.	16ff#'\	.	16aa'\	.
!	!	!	!	!	!LO:SIC:s=16g'/JJ:v	!	!	!	!	!	!	!	!	!	!	!	!	!	!	!	!	!	!	!	!	!	!	!	!	!
.	.	.	.	.	16g/JJ	.	16b'/JJ	.	.	.	.	.	.	.	.	.	.	.	.	.	.	.	.	.	.	.	16gg'\JJ	.	16bb'\JJ	.
!	!	!	!	!	!LO:LB:g=original	!	!LO:LB:g=original	!	!	!	!	!	!	!	!	!	!	!	!	!	!	!	!	!	!	!	!	!	!	!
=14	=14	=14	=14	=14	=14	=14	=14	=14	=14	=14	=14	=14	=14	=14	=14	=14	=14	=14	=14	=14	=14	=14	=14	=14	=14	=14	=14	=14	=14	=14
*	*	*	*	*	*^	*	*	*	*	*	*	*	*	*	*	*	*	*	*	*	*	*	*	*	*	*	*	*	*	*
!	!	!	!	!	!	!	!	!	!	!	!	!	!	!	!	!	!	!	!	!	!	!	!	!	!	!	!	!	!	!LO:SIC:s=8ccc'\L:v	!
!	!	!	!	!	!	!	!	!	!	!	!	!	!	!	!	!	!	!	!	!	!	!	!	!	!	!LO:SIC:s=8aa'\L:v	!	!	!	!	!
!	!	!LO:DY:b:t=for:color=red	!	!LO:DY:b:t=fort:color=red	!	!	!	!	!LO:DY:b:t=forto	!	!	!	!	!	!	!	!	!	!	!	!	!	!	!	!LO:DY:a:t=for	!	!	!	!	!	!
!	!	!	!	!	!	!	!	!	!	!	!LO:MO:mod=ex-	!	!	!	!	!	!	!	!	!	!LO:MO:mod=ex-	!	!	!	!	!	!	!	!	!	!
!	!	!	!	!	!	!	!LO:DY:t= :mod=%s	!	!	!	!	!	!	!	!	!	!	!	!	!	!	!	!	!	!	!	!LO:DY:t= :mod=%s	!	!	!	!
!	!	!	!	!	!	!	!LO:MO:mod=!LO&colon;DY&colon;ed=brack	!	!	!	!	!	!	!	!	!	!	!	!	!	!	!	!	!	!	!	!LO:MO:mod=!LO&colon;DY&colon;ed=brack	!	!	!	!
!	!	!	!	!	!	!	!null	!	!	!	!	!	!	!	!	!	!	!	!	!	!	!	!	!	!	!	!null	!	!	!	!
8F#\L	5	f	8aL 8f#\	f	8a/L	8f#\L	f	8ccnL 8d|/	f	4F#\	ex	.	4d\	ex-	.	4a\	ex-	.	.	4cc\	ex	.	.	8dd'\L	f	8aa|\L	f	8ff#'\L	.	8ccc|\L	.
!	!	!	!	!	!	!	!	!	!	!	!	!	!	!	!	!	!	!	!	!	!	!	!	!	!	!LO:SIC:s=8aa'\:v	!	!	!	!	!
!	!	!	!	!	!	!	!	!	!	!	!	!	!	!	!	!	!	!	!	!	!	!	!	!	!	!	!	!	!	!LO:SIC:s=8ccc'\:v	!
8F#\	.	.	8a 8f#\	.	8a/	8f#\J	.	8cc 8d|/	.	.	.	.	.	.	.	.	.	.	.	.	.	.	.	8dd'\	.	8aa|\	.	8ff#'\	.	8ccc|\	.
!	!	!	!	!	!	!	!	!	!	!	!LO:MO:mod=-au-	!	!	!	!	!	!	!	!	!	!LO:MO:mod=-au-	!	!	!	!	!	!	!	!	!	!
!	!	!	!	!	!	!	!	!	!	!	!	!	!	!	!	!	!	!	!	!	!	!	!	!	!	!LO:SIC:s=8bb'\:v	!	!	!	!	!
!	!	!	!	!	!	!	!	!	!	!	!	!	!	!	!	!	!	!	!	!	!	!	!	!	!	!	!	!	!	!LO:SIC:s=8bb'\:v	!
8G\	3	.	8d\	.	8g/	4ryy	.	8b 8d|/	.	8G\	au-	.	8d\	-au-	.	8g\	-au-	.	.	8b\	au-	.	.	8gg'\	.	8bb|\	.	8gg'\	.	8bb|\	.
!	!	!	!	!	!	!	!	!	!	!	!LO:MO:mod=-di	!	!	!LO:MO:mod=-di	!	!	!LO:MO:mod=-di	!	!	!	!LO:MO:mod=-di	!	!	!	!	!	!	!	!	!	!
!	!	!	!	!	!	!	!	!	!	!	!	!	!	!	!	!	!	!	!	!	!	!	!	!	!	!LO:SIC:s=8bb'\J:v	!	!	!	!	!
!	!	!	!	!	!	!	!	!	!	!	!	!	!	!	!	!	!	!	!	!	!	!	!	!	!	!	!	!	!	!LO:SIC:s=8bb'\J:v	!
8G\J	.	.	8d\J	.	8g/J	.	.	8bJ 8d|/	.	8G\	-di-	.	8d\	-di-	.	8g\	-di-	.	.	8b\	-di-	.	.	8gg'\J	.	8bb|\J	.	8gg'\J	.	8bb|\J	.
*	*	*	*	*	*v	*v	*	*	*	*	*	*	*	*	*	*	*	*	*	*	*	*	*	*	*	*	*	*	*	*	*
!	!	!	!	!	!	!	!	!	!	!	!	!	!	!	!	!	!	!	!	!LO:LB:g=original	!	!	!	!	!	!	!	!	!	!
=15	=15	=15	=15	=15	=15	=15	=15	=15	=15	=15	=15	=15	=15	=15	=15	=15	=15	=15	=15	=15	=15	=15	=15	=15	=15	=15	=15	=15	=15	=15
!	!	!	!	!	!	!	!	!	!	!LO:MO:mod=nos.	!	!	!LO:MO:mod=nos.	!	!	!LO:MO:mod=nos.	!	!	!	!LO:MO:mod=nos.	!	!	!	!	!	!	!	!	!	!
8D/L	.	.	4d\	.	4g/	.	(4b 4d/	.	4.D\	-nos	.	4.d\	-nos	.	(4g\	-nos	.	.	(4b\	-nos	.	.	4gg\	.	4bb\	.	(4gg\	.	(4bb\	.
8AA/	.	.	.	.	.	.	.	.	.	.	.	.	.	.	.	.	.	.	.	.	.	.	.	.	.	.	.	.	.	.
8DD/J	.	.	8d\	.	8f#/	.	8a 8d/)	.	.	.	.	.	.	.	8f#\)	.	.	.	8a\)	.	.	.	8dd/	.	8aa\	.	8ff#\)	.	8aa\)	.
!	!	!	!	!	!	!	!LO:TX:i:a:t=dolce	!LO:DY:b:t=pia	!	!	!	!	!	!	!	!	!	!	!	!	!	!	!	!	!	!	!	!	!	!
8r	.	.	8r	.	8r	.	8a/	p	8r	.	.	8r	.	.	8r	.	.	.	8r	.	.	.	8r	.	8r	.	8r	.	8r	.
!LO:LB:g=original	!	!	!	!	!	!	!	!	!	!	!	!	!	!	!	!	!	!	!	!	!	!	!	!	!	!	!	!	!	!
=16	=16	=16	=16	=16	=16	=16	=16	=16	=16	=16	=16	=16	=16	=16	=16	=16	=16	=16	=16	=16	=16	=16	=16	=16	=16	=16	=16	=16	=16	=16
!	!	!	!	!	!	!	!	!	!LO:MO:mod=!null:null	!	!	!LO:MO:mod=!null:null	!	!	!LO:MO:mod=!null:null	!	!	!	!	!	!	!	!	!	!	!	!	!	!	!
!	!	!	!	!	!	!LO:DY:a:t=piano	!	!	!LO:TX:a:t=4	!	!	!LO:TX:a:t=4	!	!	!LO:TX:a:t=4	!	!	!	!	!	!	!	!	!	!	!	!	!	!	!
!	!	!	!	!	!	!	!	!	!LO:MO:mod=!null:null	!	!	!	!	!	!	!	!	!	!	!	!	!	!	!	!	!	!	!	!	!
!	!	!	!	!	!	!	!	!	!	!	!	!LO:MO:mod=!null:null	!	!	!	!	!	!	!	!	!	!	!	!	!	!	!	!	!	!
!	!	!	!	!	!	!	!	!	!	!	!	!	!	!	!LO:MO:mod=!null:null	!	!	!	!	!	!	!	!LO:MO:mod=!null:null	!	!LO:MO:mod=!null:null	!	!LO:MO:mod=!null:null	!	!LO:MO:mod=!null:null	!
!	!	!	!	!	!	!	!	!	!LO:N:vis=00	!	!	!LO:N:vis=00	!	!	!LO:N:vis=00	!	!	!	!	!	!	!	!LO:N:vis=00	!	!LO:N:vis=00	!	!LO:N:vis=00	!	!LO:N:vis=00	!
!	!	!	!	!	!	!LO:MO:mod=!null:null	!	!	!	!	!	!	!	!	!	!	!	!	!	!	!	!	!	!	!	!	!	!	!	!
8r	.	.	8r	.	8r	p	4dd\	.	0r	.	.	0r	.	.	0r	.	.	.	4dd\	Pa-	.	.	0r	.	0r	.	0r	.	0r	.
!LO:MO:mod=!null:null	!	!	!	!	!	!	!	!	!	!	!	!	!	!	!	!	!	!	!	!	!	!	!	!	!	!	!	!	!	!
!LO:TX:b:t=Solo:color=red	!	!	!	!LO:DY:b:t=pia:color=red	!	!	!	!	!	!	!	!	!	!	!	!	!	!	!	!	!	!	!	!	!	!	!	!	!	!
!	!	!LO:DY:t= :mod=%s	!	!	!	!LO:DY:t= :mod=%s	!	!	!	!	!	!	!	!	!	!	!	!	!	!	!	!	!	!	!	!	!	!	!	!
!	!	!LO:MO:mod=!LO&colon;DY&colon;ed=brack	!	!	!	!LO:MO:mod=!LO&colon;DY&colon;ed=brack	!	!	!	!	!	!	!	!	!	!	!	!	!	!	!	!	!	!	!	!	!	!	!	!
!	!	!null	!	!	!	!null	!	!	!	!	!	!	!	!	!	!	!	!	!	!	!	!	!	!	!	!	!	!	!	!
8F#\L	6	p	8a'\L	p	8d'/L	p	.	.	.	.	.	.	.	.	.	.	.	.	.	.	.	.	.	.	.	.	.	.	.	.
8F#\	.	.	8a'\	.	8d'/	.	(16dd\LL	.	.	.	.	.	.	.	.	.	.	.	(16dd\LL	-ter	.	.	.	.	.	.	.	.	.	.
.	.	.	.	.	.	.	16cc#X\	.	.	.	.	.	.	.	.	.	.	.	16cc#X\JJ)	.	.	.	.	.	.	.	.	.	.	.
8F#\J	.	.	8a'\J	.	8d'/J	.	16ccn\	.	.	.	.	.	.	.	.	.	.	.	(16ccn\LL	de	.	.	.	.	.	.	.	.	.	.
.	.	.	.	.	.	.	16a\JJ)	.	.	.	.	.	.	.	.	.	.	.	16a\JJ)	.	.	.	.	.	.	.	.	.	.	.
!	!	!	!LO:LB:g=original	!	!	!	!	!	!	!	!	!	!	!	!	!	!	!	!	!	!	!	!	!	!	!	!	!	!	!
=17	=17	=17	=17	=17	=17	=17	=17	=17	=17	=17	=17	=17	=17	=17	=17	=17	=17	=17	=17	=17	=17	=17	=17	=17	=17	=17	=17	=17	=17	=17
!	!	!	!	!	!	!	!	!	!	!	!	!	!	!	!	!	!	!	!	!LO:MO:mod=cae-	!	!	!	!	!	!	!	!	!	!
8r	.	.	8r	.	8r	.	(16a#X/LL	.	.	.	.	.	.	.	.	.	.	.	(16a#X\LL	Coe-	.	.	.	.	.	.	.	.	.	.
.	.	.	.	.	.	.	16b/J)	.	.	.	.	.	.	.	.	.	.	.	16b\JJ)	.	.	.	.	.	.	.	.	.	.	.
!	!	!	!	!	!	!	!	!	!	!	!	!	!	!	!	!	!	!	!	!LO:MO:mod=-lis,	!	!	!	!	!	!	!	!	!	!
!	!	!	!	!	!LO:SIC:s=8d|/:v	!	!	!	!	!	!	!	!	!	!	!	!	!	!	!	!	!	!	!	!	!	!	!	!	!
8GG/L	.	.	8g\L	.	8d/	.	8b|/J	.	.	.	.	.	.	.	.	.	.	.	8b\	-lis	.	.	.	.	.	.	.	.	.	.
!	!	!	!LO:TX:t=P:problem: mixed beam	!	!	!	!	!	!	!	!	!	!	!	!	!	!	!	!	!	!	!	!	!	!	!	!	!	!	!
8G\	.	.	8G/	.	16d|/LL	.	16r	.	.	.	.	.	.	.	.	.	.	.	16r	.	.	.	.	.	.	.	.	.	.	.
.	.	.	.	.	16B|/	.	16b|\LL	.	.	.	.	.	.	.	.	.	.	.	16b\	de	.	.	.	.	.	.	.	.	.	.
!	!	!	!	!	!	!	!	!	!	!	!	!	!	!	!	!	!	!	!	!LO:MO:mod=cae-	!	!	!	!	!	!	!	!	!	!
8F#\J	.	.	8f#\J	.	16c#X|/	.	16cc#X|\	.	.	.	.	.	.	.	.	.	.	.	16cc#X\	Coe-	.	.	.	.	.	.	.	.	.	.
!	!	!	!	!	!	!	!	!	!	!	!	!	!	!	!	!	!	!	!	!LO:MO:mod=-lis,	!	!	!	!	!	!	!	!	!	!
.	.	.	.	.	16d#X|/JJ	.	16dd#X|\JJ	.	.	.	.	.	.	.	.	.	.	.	16dd#X\	-lis	.	.	.	.	.	.	.	.	.	.
=18	=18	=18	=18	=18	=18	=18	=18	=18	=18	=18	=18	=18	=18	=18	=18	=18	=18	=18	=18	=18	=18	=18	=18	=18	=18	=18	=18	=18	=18	=18
!	!	!	!	!	!LO:SIC:s=16e|/LL:v	!	!	!	!	!	!	!	!	!	!	!	!	!	!	!	!	!	!	!	!	!	!	!	!	!
8G\L	.	.	8g\L	.	16e/LL	.	16ee|\LL	.	.	.	.	.	.	.	.	.	.	.	8ee\	De-	.	.	.	.	.	.	.	.	.	.
.	.	.	.	.	16b|/	.	16ee|\	.	.	.	.	.	.	.	.	.	.	.	.	.	.	.	.	.	.	.	.	.	.	.
!	!	!	!	!	!	!	!	!	!	!	!	!	!	!	!	!	!	!	!	!LO:MO:mod=-us,	!	!	!	!	!	!	!	!	!	!
8F#\	.	.	8f#\	.	16a|/	.	16dd#X|\	.	.	.	.	.	.	.	.	.	.	.	8dd#X\	-us	.	.	.	.	.	.	.	.	.	.
.	.	.	.	.	16a|/JJ	.	16dd#|\JJ	.	.	.	.	.	.	.	.	.	.	.	.	.	.	.	.	.	.	.	.	.	.	.
!	!	!	!	!	!LO:MO:mod=*null:null	!	!	!	!	!	!	!	!	!	!	!	!	!	!	!	!	!	!	!	!	!	!	!	!	!
*	*	*	*	*	*tremolo	*	*	*	*	*	*	*	*	*	*	*	*	*	*	*	*	*	*	*	*	*	*	*	*	*
!	!	!	!	!	!LO:TX:t=P:problem: 4x |	!	!	!	!	!	!	!	!	!	!	!	!	!	!	!	!	!	!	!	!	!	!	!	!	!
8G\	.	.	8g\	.	16b|\LL	.	16ee|\LL	.	.	.	.	.	.	.	.	.	.	.	8ee\	mi-	.	.	.	.	.	.	.	.	.	.
!	!	!	!	!	!LO:SIC:s=16b|\:v	!	!	!	!	!	!	!	!	!	!	!	!	!	!	!	!	!	!	!	!	!	!	!	!	!
.	.	.	.	.	16b\	.	16ee|\	.	.	.	.	.	.	.	.	.	.	.	.	.	.	.	.	.	.	.	.	.	.	.
!	!	!	!	!	!LO:SIC:s=16b|\:v	!	!	!	!	!	!	!	!	!	!	!	!	!	!	!	!	!	!	!	!	!	!	!	!	!
8D#X\J	.	.	8d#X\J	.	16b\	.	16ff#|\	.	.	.	.	.	.	.	.	.	.	.	8ff#\	-se-	.	.	.	.	.	.	.	.	.	.
!	!	!	!	!	!LO:SIC:s=16b|\JJ:v	!	!	!	!	!	!	!	!	!	!	!	!	!	!	!	!	!	!	!	!	!	!	!	!	!
.	.	.	.	.	16b\JJ	.	16ff#|\JJ	.	.	.	.	.	.	.	.	.	.	.	.	.	.	.	.	.	.	.	.	.	.	.
*	*	*	*	*	*Xtremolo	*	*	*	*	*	*	*	*	*	*	*	*	*	*	*	*	*	*	*	*	*	*	*	*	*
=19	=19	=19	=19	=19	=19	=19	=19	=19	=19	=19	=19	=19	=19	=19	=19	=19	=19	=19	=19	=19	=19	=19	=19	=19	=19	=19	=19	=19	=19	=19
8E\L	.	.	8e\L	.	16b|\LL	.	16gg|\LL	.	.	.	.	.	.	.	.	.	.	.	8gg\	-re-	.	.	.	.	.	.	.	.	.	.
.	.	.	.	.	16b|\	.	16gg|\	.	.	.	.	.	.	.	.	.	.	.	.	.	.	.	.	.	.	.	.	.	.	.
8F#\	.	.	8d#X\	.	16a|\	.	16ff#|\	.	.	.	.	.	.	.	.	.	.	.	8ff#\	-re	.	.	.	.	.	.	.	.	.	.
.	.	.	.	.	16a|\JJ	.	16ff#|\JJ	.	.	.	.	.	.	.	.	.	.	.	.	.	.	.	.	.	.	.	.	.	.	.
8G\	.	.	8e\	.	16g|/LL	.	16ee|\LL	.	.	.	.	.	.	.	.	.	.	.	8ee\	no-	.	.	.	.	.	.	.	.	.	.
.	.	.	.	.	16g|/	.	16ee|\	.	.	.	.	.	.	.	.	.	.	.	.	.	.	.	.	.	.	.	.	.	.	.
8G#X\J	.	.	8b\J	.	16f#|/	.	16ddn|\	.	.	.	.	.	.	.	.	.	.	.	8dd\	-bis	.	.	.	.	.	.	.	.	.	.
.	.	.	.	.	16f#|/JJ	.	16dd|\JJ	.	.	.	.	.	.	.	.	.	.	.	.	.	.	.	.	.	.	.	.	.	.	.
!	!	!	!	!	!	!	!	!	!	!	!	!	!	!	!LO:LB:g=original	!	!	!	!	!	!	!	!	!	!	!	!	!	!	!
=20	=20	=20	=20	=20	=20	=20	=20	=20	=20	=20	=20	=20	=20	=20	=20	=20	=20	=20	=20	=20	=20	=20	=20	=20	=20	=20	=20	=20	=20	=20
!	!	!LO:DY:b:color=red	!	!LO:DY:b:color=red	!	!LO:DY:a:t=forto	!	!LO:DY:b:t=forto	!	!	!	!	!	!	!	!	!	!	!	!	!	!	!	!LO:DY:a:t=f.	!	!LO:DY:a	!	!	!LO:TX:a:t=Problem&colon; 2\right&colon;global	!
*	*	*	*	*	*	*	*	*	*	*	*	*	*	*	*	*	*	*	*	*	*	*	*	*	*	*	*2\right	*	*2\right	*
!	!	!	!	!	!	!	!	!	!	!	!	!	!	!	!	!	!	!	!	!	!	!	!	!	!	!	!LO:SIC:s=2a/:v	!	!	!
8AA/L	.	f	4a\	f	8e|/L	f	(16dd\LL	f	4A\	Fi-	.	4A\	Fi-	.	4e\	Fi-	.	.	4cc#X\	Fi-	.	.	4aa\	f	4aa\	f	2g/	.	2cc#X\	.
.	.	.	.	.	.	.	16cc#X\)	.	.	.	.	.	.	.	.	.	.	.	.	.	.	.	.	.	.	.	.	.	.	.
8A\J	.	.	.	.	16e|/L	.	16cc#|\	.	.	.	.	.	.	.	.	.	.	.	.	.	.	.	.	.	.	.	.	.	.	.
.	.	.	.	.	16e|/JJ	.	16cc#|\JJ	.	.	.	.	.	.	.	.	.	.	.	.	.	.	.	.	.	.	.	.	.	.	.
!	!	!	!	!	!	!	!	!	!	!LO:MO:mod=-li,	!	!	!LO:MO:mod=-li,	!	!	!LO:MO:mod=-li,	!	!	!	!LO:MO:mod=-li,	!	!	!	!	!	!	!	!	!	!
8r	.	.	8a\L	.	(16g/LL	.	(16ee\LL	.	8A\	-li	.	8A\	-li	.	8e\	-li	.	.	8cc#\	-li	.	.	8aa\L	.	8aa\L	.	.	.	.	.
.	.	.	.	.	16e/)	.	16cc#\)	.	.	.	.	.	.	.	.	.	.	.	.	.	.	.	.	.	.	.	.	.	.	.
8AA/	.	.	8a\J	.	(16g/	.	(16ee\	.	8A\	Re-	.	8A\	Re-	.	8e\	Re-	.	.	8cc#\	Re-	.	.	8aa\J	.	8aa\J	.	.	.	.	.
.	.	.	.	.	16e/JJ)	.	16cc#\JJ)	.	.	.	.	.	.	.	.	.	.	.	.	.	.	.	.	.	.	.	.	.	.	.
!	!	!	!	!	!	!	!	!	!	!	!	!LO:LB:g=original	!	!	!	!	!	!	!	!	!	!	!	!	!	!	!	!	!	!
=21	=21	=21	=21	=21	=21	=21	=21	=21	=21	=21	=21	=21	=21	=21	=21	=21	=21	=21	=21	=21	=21	=21	=21	=21	=21	=21	=21	=21	=21	=21
!LO:TX:t=P:problem: mixed beam	!	!	!	!	!	!	!	!	!	!	!	!	!	!	!	!	!	!	!	!	!	!	!	!	!	!	!	!	!	!
!	!	!	!	!	!	!	!	!	!	!LO:MO:mod=-demp-	!	!	!LO:MO:mod=-demp-	!	!	!LO:MO:mod=-demp-	!	!	!	!	!	!	!	!	!	!	!	!	!	!
8DD/L	.	.	4a\	.	(16g/LL	.	(16ee\LL	.	8.D\	-dem-	.	8.A\	-dem-	.	8.f#\	-dem-	.	.	8.dd\	-demp-	.	.	4dd/	.	4aa\	.	2f#/	.	2dd\	.
.	.	.	.	.	16f#/)	.	16dd\)	.	.	.	.	.	.	.	.	.	.	.	.	.	.	.	.	.	.	.	.	.	.	.
8D\J	.	.	.	.	16f#|/	.	16dd|\	.	.	.	.	.	.	.	.	.	.	.	.	.	.	.	.	.	.	.	.	.	.	.
!	!	!	!	!	!	!	!	!	!	!	!	!	!	!	!	!	!	!	!LO:LB:g=original	!	!	!	!	!	!	!	!	!	!	!
!	!	!	!	!	!	!	!	!	!	!	!	!	!	!	!	!LO:MO:mod=-tor	!	!	!	!	!	!	!	!	!	!	!	!	!	!
.	.	.	.	.	16f#|/JJ	.	16dd|\JJ	.	16D\	-tor	.	16A\	-tor	.	16f#\	-ptor	.	.	16dd\	-tor	.	.	.	.	.	.	.	.	.	.
!	!	!	!	!	!	!	!LO:LB:g=original	!	!	!	!	!	!	!	!	!	!	!	!	!	!	!	!	!	!	!	!	!	!	!
8r	.	.	8a\L	.	(16a/LL	.	(16ff#\LL	.	8D\	mun-	.	8A\	mun-	.	8f#\	mun-	.	.	8dd\	mun-	.	.	8dd/L	.	8aa\L	.	.	.	.	.
.	.	.	.	.	16f#/)	.	16dd\)	.	.	.	.	.	.	.	.	.	.	.	.	.	.	.	.	.	.	.	.	.	.	.
!	!	!	!	!	!	!	!	!	!	!LO:MO:mod=-di,	!	!	!LO:MO:mod=-di,	!	!	!LO:MO:mod=-di,	!	!	!	!LO:MO:mod=-di,	!	!	!	!	!	!	!	!	!	!
8D\	.	.	8a\J	.	(16a/	.	(16ff#\	.	8D\	-di	.	8A\	-di	.	8f#\	-di	.	.	8dd\	-di	.	.	8dd/J	.	8aa\J	.	.	.	.	.
.	.	.	.	.	16f#/JJ)	.	16dd\JJ)	.	.	.	.	.	.	.	.	.	.	.	.	.	.	.	.	.	.	.	.	.	.	.
!	!	!	!	!	!	!	!	!	!LO:LB:g=original	!	!	!	!	!	!	!	!	!	!	!	!	!	!	!	!	!	!	!	!	!
=22	=22	=22	=22	=22	=22	=22	=22	=22	=22	=22	=22	=22	=22	=22	=22	=22	=22	=22	=22	=22	=22	=22	=22	=22	=22	=22	=22	=22	=22	=22
8A\L	.	.	4a\	.	(16dd\LL	.	(16ff#\LL	.	4A\	De-	.	4c#X\	De-	.	4a\	De-	.	.	4ee\	De-	.	.	4aa\	.	4aa\	.	2cc#X\	.	2ee\	.
.	.	.	.	.	16cc#X\)	.	16ee\)	.	.	.	.	.	.	.	.	.	.	.	.	.	.	.	.	.	.	.	.	.	.	.
8AA/J	.	.	.	.	16cc#|\	.	16ee|\	.	.	.	.	.	.	.	.	.	.	.	.	.	.	.	.	.	.	.	.	.	.	.
.	.	.	.	.	16cc#|\JJ	.	16ee|\JJ	.	.	.	.	.	.	.	.	.	.	.	.	.	.	.	.	.	.	.	.	.	.	.
!	!	!	!	!	!LO:LB:g=original	!	!	!	!	!	!	!	!	!	!	!	!	!	!	!	!	!	!	!	!	!	!	!	!	!
!	!	!	!	!	!	!	!	!	!	!LO:MO:mod=-us,	!	!	!LO:MO:mod=-us,	!	!	!LO:MO:mod=-us,	!	!	!	!LO:MO:mod=-us,	!	!	!	!	!	!	!	!	!	!
8r	.	.	8a\L	.	(16ee\LL	.	(16gg\LL	.	8A\	-us	.	8c#\	-us	.	8a\	-us	.	.	8ee\	-us	.	.	8aa\L	.	8aa\L	.	.	.	.	.
.	.	.	.	.	16cc#X\)	.	16ee\)	.	.	.	.	.	.	.	.	.	.	.	.	.	.	.	.	.	.	.	.	.	.	.
8A\	.	.	8a\J	.	(16ee\	.	(16gg\	.	8r	.	.	8r	.	.	8r	.	.	.	8r	.	.	.	8aa\J	.	8aa\J	.	.	.	.	.
.	.	.	.	.	16cc#\JJ)	.	16ee\JJ)	.	.	.	.	.	.	.	.	.	.	.	.	.	.	.	.	.	.	.	.	.	.	.
=23	=23	=23	=23	=23	=23	=23	=23	=23	=23	=23	=23	=23	=23	=23	=23	=23	=23	=23	=23	=23	=23	=23	=23	=23	=23	=23	=23	=23	=23	=23
!	!	!	!	!	!	!	!	!	!	!	!	!	!	!	!	!	!	!	!	!	!	!	!	!	!	!	!LO:SIC:s=16qqee/:v	!	!	!
.	.	.	.	.	.	.	.	.	.	.	.	.	.	.	.	.	.	.	.	.	.	.	.	.	.	.	8qqee/	.	16qqgg/	.
8r	.	.	8a\L	.	(16ee\LL	.	(16gg\LL	.	8r	.	.	8r	.	.	8r	.	.	.	8r	.	.	.	4dd/	.	4aa\	.	4dd\	.	4ff#\	.
.	.	.	.	.	16dd\)	.	16ff#\)	.	.	.	.	.	.	.	.	.	.	.	.	.	.	.	.	.	.	.	.	.	.	.
!	!	!	!	!	!	!	!	!	!	!	!LO:DY:t= :mod=%s	!	!	!LO:DY:t= :mod=%s	!	!	!	!LO:DY:t= :mod=%s	!	!	!	!LO:DY:t= :mod=%s	!	!	!	!	!	!	!	!
!	!	!	!	!	!	!	!	!	!	!	!LO:MO:mod=!LO&colon;DY&colon;ed=brack	!	!	!LO:MO:mod=!LO&colon;DY&colon;ed=brack	!	!	!	!LO:MO:mod=!LO&colon;DY&colon;ed=brack	!	!	!	!LO:MO:mod=!LO&colon;DY&colon;ed=brack	!	!	!	!	!	!	!	!
!	!	!	!	!	!	!	!	!	!	!	!null	!	!	!null	!	!	!	!null	!	!	!	!null	!	!	!	!	!	!	!	!
8D\L	.	.	16a\L	.	16dd|\	.	16ff#|\	.	8D\	Spi-	f	8d\	Spi-	f	8a\	Spi-	.	f	8ff#\	Spi-	.	f	.	.	.	.	.	.	.	.
.	.	.	16a\JJ	.	16dd|\JJ	.	16ff#|\JJ	.	.	.	.	.	.	.	.	.	.	.	.	.	.	.	.	.	.	.	.	.	.	.
!	!	!	!	!	!	!	!	!	!	!	!	!	!	!LO:DY:a	!	!	!	!	!	!	!	!	!	!	!	!	!	!	!	!
!	!	!	!	!	!	!	!	!	!	!	!	!	!	!LO:MO:mod=!null:null	!	!	!	!	!	!	!	!	!	!	!	!	!	!	!	!
!	!	!	!	!	!	!	!	!	!	!	!	!	!	!	!	!	!	!	!	!	!	!	!	!	!	!	!LO:SIC:s=16qqdd/:v	!	!	!
.	.	.	.	.	.	.	.	.	.	.	.	16qqd/	.	f	.	.	.	.	.	.	.	.	.	.	.	.	8qqdd/	.	16qqff#/	.
8A\	#	.	16a\LL	.	(16dd\LL	.	(16ff#\LL	.	8A\	-ri-	.	8c#X\	-ri-	.	8a\	-ri-	.	.	8ee\	-ri-	.	.	4r	.	4r	.	4cc#X\	.	4ee\	.
.	.	.	16a\	.	16cc#X\)	.	16ee\)	.	.	.	.	.	.	.	.	.	.	.	.	.	.	.	.	.	.	.	.	.	.	.
8A#X\J	.	.	16f#\	.	16cc#|\	.	16ee|\	.	8A#X\	-tus	.	8c#\	-tus	.	8f#\	-tus	.	.	8ee\	-tus	.	.	.	.	.	.	.	.	.	.
.	.	.	16f#\JJ	.	16cc#|\JJ	.	16ee|\JJ	.	.	.	.	.	.	.	.	.	.	.	.	.	.	.	.	.	.	.	.	.	.	.
!	!	!	!	!	!	!	!	!	!	!	!	!	!	!	!	!	!	!	!	!	!	!	!	!	!	!	!	!	!LO:LB:g=original	!
=24	=24	=24	=24	=24	=24	=24	=24	=24	=24	=24	=24	=24	=24	=24	=24	=24	=24	=24	=24	=24	=24	=24	=24	=24	=24	=24	=24	=24	=24	=24
!	!	!	!	!	!	!	!	!	!	!	!	!	!	!	!	!	!	!	!	!	!	!	!	!	!	!	!LO:SIC:s=16qqcc/:v	!	!	!
.	.	.	.	.	.	.	.	.	.	.	.	.	.	.	.	.	.	.	.	.	.	.	.	.	.	.	8qqcc/	.	16qqee/	.
8r	.	.	8f#\L	.	(16cc\LL	.	(16ee\LL	.	8r	.	.	8r	.	.	8r	.	.	.	8r	.	.	.	4r	.	4r	.	4b\	.	4dd\	.
.	.	.	.	.	16b\)	.	16dd\)	.	.	.	.	.	.	.	.	.	.	.	.	.	.	.	.	.	.	.	.	.	.	.
8B\L	.	.	16f#\L	.	16b|\	.	16dd|\	.	8B\L	San-	.	8B\	San-	.	8f#\	San-	.	.	8dd\	San-	.	.	.	.	.	.	.	.	.	.
.	.	.	16f#\JJ	.	16b|\JJ	.	16dd|\JJ	.	.	.	.	.	.	.	.	.	.	.	.	.	.	.	.	.	.	.	.	.	.	.
!	!	!	!LO:MO:mod=*null:null	!	!	!	!	!	!	!	!	!	!	!	!	!	!	!	!	!	!	!	!	!	!	!	!	!	!	!
*	*	*	*tremolo	*	*	*	*	*	*	*	*	*	*	*	*	*	*	*	*	*	*	*	*	*	*	*	*	*	*	*
!	!	!	!	!	!	!	!	!	!	!	!	!	!	!	!	!	!	!	!	!	!	!	!	!	!	!	!LO:SIC:s=16qqb/:v	!	!	!
.	.	.	.	.	.	.	.	.	.	.	.	.	.	.	.	.	.	.	.	.	.	.	.	.	.	.	8qqb/	.	16qqdd/	.
!	!	!	!	!	!LO:SIC:s=(16b/LL:v	!	!	!	!	!	!	!	!	!	!	!	!	!	!	!	!	!	!	!	!	!	!	!	!	!
8F#\	.	.	16f#\LL	.	16b/LL	.	(16dd\LL	.	8F#\J	.	.	8r	.	.	8r	.	.	.	8r	.	.	.	(4dd/	.	(4aa\	.	8a\L	.	4cc\	.
!	!	!	!	!	!LO:SIC:s=16a)/:v	!	!	!	!	!	!	!	!	!	!	!	!	!	!	!	!	!	!	!	!	!	!	!	!	!
.	.	.	16f#\	.	16a/	.	16ccn\)	.	.	.	.	.	.	.	.	.	.	.	.	.	.	.	.	.	.	.	.	.	.	.
!	!	!	!	!	!	!	!	!	!	!LO:MO:mod=-cte,	!	!	!LO:MO:mod=-cte,	!	!	!LO:MO:mod=-cte,	!	!	!	!LO:MO:mod=-cte,	!	!	!	!	!	!	!	!	!	!
!	!	!	!	!	!LO:SIC:s=16a 16d|/:v	!	!	!	!	!	!	!	!	!	!	!	!	!	!	!	!	!	!	!	!	!	!	!	!	!
8An\J	n	.	16f#\	.	16a 16d/	.	16cc|\	.	8D\	-cte	.	8A\	-cte	.	8f#\	-cte	.	.	8ccn\	-cte	.	.	.	.	.	.	8dd\J	.	.	.
!	!	!	!	!	!LO:SIC:s=16aJJ 16d|/:v	!	!	!	!	!	!	!	!	!	!	!	!	!	!	!	!	!	!	!	!	!	!	!	!	!
.	.	.	16f#\JJ	.	16aJJ 16d/	.	16cc|\JJ	.	.	.	.	.	.	.	.	.	.	.	.	.	.	.	.	.	.	.	.	.	.	.
*	*	*	*Xtremolo	*	*	*	*	*	*	*	*	*	*	*	*	*	*	*	*	*	*	*	*	*	*	*	*	*	*	*
!LO:LB:g=original	!	!	!	!	!	!	!	!	!	!	!	!	!	!	!	!	!	!	!	!	!	!	!	!	!	!	!	!	!	!
=25	=25	=25	=25	=25	=25	=25	=25	=25	=25	=25	=25	=25	=25	=25	=25	=25	=25	=25	=25	=25	=25	=25	=25	=25	=25	=25	=25	=25	=25	=25
.	.	.	.	.	.	.	.	.	.	.	.	.	.	.	.	.	.	.	.	.	.	.	.	.	.	.	.	.	16qqccc/	.
8r	.	.	8d\L	.	(16a/LL	.	(16cc\LL	.	8r	.	.	8r	.	.	8r	.	.	.	8r	.	.	.	8gg\)	.	8bb\)	.	4gg\	.	4bb\	.
.	.	.	.	.	16g/)	.	16b\)	.	.	.	.	.	.	.	.	.	.	.	.	.	.	.	.	.	.	.	.	.	.	.
*	*	*	*	*	*	*	*	*	*	*ij	*	*	*ij	*	*	*	*	*	*	*	*	*	*	*	*	*	*	*	*	*
8G\L	3	.	16d\L	.	16g|/	.	16b|\	.	8G\	San-	.	8d\	San-	.	8g\	San-	.	.	8b\	San-	.	.	8r	.	8r	.	.	.	.	.
.	.	.	16d\JJ	.	16g|/JJ	.	16b|\JJ	.	.	.	.	.	.	.	.	.	.	.	.	.	.	.	.	.	.	.	.	.	.	.
!	!	!	!	!	!	!	!	!	!	!	!	!	!	!	!	!	!	!	!	!	!	!	!	!	!	!	!LO:SIC:s=16qqgg/:v	!	!	!
.	.	.	.	.	.	.	.	.	.	.	.	.	.	.	.	.	.	.	.	.	.	.	.	.	.	.	8qqgg/	.	16qqbb/	.
8D\	.	.	16d/LL	.	(16g/LL	.	(16b/LL	.	8r	.	.	8r	.	.	8r	.	.	.	8r	.	.	.	4r	.	4r	.	4ff#\	.	4aa\	.
.	.	.	16d/	.	16f#/)	.	16a/)	.	.	.	.	.	.	.	.	.	.	.	.	.	.	.	.	.	.	.	.	.	.	.
!	!	!	!	!	!	!	!	!	!	!LO:MO:mod=-cte,	!	!	!LO:MO:mod=-cte,	!	!	!LO:MO:mod=-cte,	!	!	!	!LO:MO:mod=-cte,	!	!	!	!	!	!	!	!	!	!
8D#X\J	.	.	16B/	.	16f#|/	.	16a|/	.	8D#X\	-cte	.	8B\	-cte	.	8f#\	-cte	.	.	8a\	-cte	.	.	.	.	.	.	.	.	.	.
.	.	.	16B/JJ	.	16f#|/JJ	.	16a|/JJ	.	.	.	.	.	.	.	.	.	.	.	.	.	.	.	.	.	.	.	.	.	.	.
*	*	*	*	*	*	*	*	*	*	*Xij	*	*	*Xij	*	*	*	*	*	*	*	*	*	*	*	*	*	*	*	*	*
=26	=26	=26	=26	=26	=26	=26	=26	=26	=26	=26	=26	=26	=26	=26	=26	=26	=26	=26	=26	=26	=26	=26	=26	=26	=26	=26	=26	=26	=26	=26
!	!	!	!	!	!	!	!	!	!	!	!	!	!	!	!	!	!	!	!	!	!	!	!	!	!	!	!LO:SIC:s=16qqff#/:v	!	!	!
.	.	.	.	.	.	.	.	.	.	.	.	.	.	.	.	.	.	.	.	.	.	.	.	.	.	.	8qqff#/	.	16qqaa/	.
8r	.	.	8B/L	.	(16f#/LL	.	(16a/LL	.	8r	.	.	8r	.	.	8r	.	.	.	8r	.	.	.	4r	.	4r	.	8ee\	.	4gg\	.
.	.	.	.	.	16e/)	.	16g/)	.	.	.	.	.	.	.	.	.	.	.	.	.	.	.	.	.	.	.	.	.	.	.
8E/L	.	.	16B/L	.	16e|/	.	16g|/	.	8E/L	De-	.	8B\L	De-	.	4e\	De-	.	.	4g\	De-	.	.	.	.	.	.	8r	.	.	.
.	.	.	16B/JJ	.	16e|/JJ	.	16g|/JJ	.	.	.	.	.	.	.	.	.	.	.	.	.	.	.	.	.	.	.	.	.	.	.
!	!	!	!	!	!LO:MO:mod=*null:null	!	!	!	!	!	!	!	!	!	!	!	!	!	!	!	!	!	!	!	!	!	!	!	!	!
!	!	!	!LO:MO:mod=*null:null	!	!	!	!	!	!	!	!	!	!	!	!	!	!	!	!	!	!	!	!	!	!	!	!	!	!	!
*	*	*	*tremolo	*	*tremolo	*	*	*	*	*	*	*	*	*	*	*	*	*	*	*	*	*	*	*	*	*	*	*	*	*
!	!	!	!	!	!LO:TX:t=P:problem: 4x |	!	!	!	!	!	!	!	!	!	!	!	!	!	!	!	!	!	!	!	!	!	!	!	!	!
8C#X/	.	.	16A/LL	.	16e|/LL	.	16g|/LL	.	8C#X/J	.	.	8A\J	.	.	.	.	.	.	.	.	.	.	8aa\L	.	8aa\L	.	4r	.	4r	.
!	!	!	!	!	!LO:SIC:s=16e|/:v	!	!	!	!	!	!	!	!	!	!	!	!	!	!	!	!	!	!	!	!	!	!	!	!	!
.	.	.	16A/	.	16e/	.	16g|/	.	.	.	.	.	.	.	.	.	.	.	.	.	.	.	.	.	.	.	.	.	.	.
!	!	!	!	!	!	!	!	!	!	!LO:MO:mod=-us,	!	!	!LO:MO:mod=-us,	!	!	!LO:MO:mod=-us,	!	!	!	!LO:MO:mod=-us,	!	!	!	!	!	!	!	!	!	!
!	!	!	!	!	!LO:SIC:s=16e|/:v	!	!	!	!	!	!	!	!	!	!	!	!	!	!	!	!	!	!	!	!	!	!	!	!	!
8AA/J	.	.	16A/	.	16e/	.	16g|/	.	8AA/	-us	.	8A\	-us	.	8e\	-ud	.	.	8g\	-us	.	.	8aa\J	.	8aa\J	.	.	.	.	.
!	!	!	!	!	!LO:SIC:s=16e|/JJ:v	!	!	!	!	!	!	!	!	!	!	!	!	!	!	!	!	!	!	!	!	!	!	!	!	!
.	.	.	16A/JJ	.	16e/JJ	.	16g|/JJ	.	.	.	.	.	.	.	.	.	.	.	.	.	.	.	.	.	.	.	.	.	.	.
*	*	*	*Xtremolo	*	*Xtremolo	*	*	*	*	*	*	*	*	*	*	*	*	*	*	*	*	*	*	*	*	*	*	*	*	*
!	!	!	!LO:LB:g=original	!	!	!	!	!	!	!	!	!	!	!	!	!	!	!	!	!	!	!	!LO:LB:g=original	!	!LO:LB:g=original	!	!	!	!	!
=27	=27	=27	=27	=27	=27	=27	=27	=27	=27	=27	=27	=27	=27	=27	=27	=27	=27	=27	=27	=27	=27	=27	=27	=27	=27	=27	=27	=27	=27	=27
!	!	!	!	!	!	!	!LO:TX:t=P:problem: mixed beam	!	!	!	!	!	!	!	!	!	!	!	!	!	!	!	!	!	!	!	!	!	!	!
!	!	!	!	!	!	!	!	!	!	!	!	!	!LO:MO:mod=mi-	!	!	!	!	!	!	!	!	!	!	!	!	!	!	!	!	!
!	!	!	!	!	!LO:SIC:s=16d|/LL:v	!	!	!	!	!	!	!	!	!	!	!	!	!	!	!	!	!	!	!	!	!	!	!	!	!
8Dn\L	.	.	16a\LL	.	16d/LL	.	16f#|/LL	.	8Dn\L	mi-	.	8A\L	Mi-	.	8d\L	mi-	.	.	8f#/L	mi-	.	.	8dd/	.	8aa\	.	8r	.	8r	.
!	!	!	!	!	!LO:SIC:s=16d|/:v	!	!	!	!	!	!	!	!	!	!	!	!	!	!	!	!	!	!	!	!	!	!	!	!	!
.	.	.	16a\	.	16d/	.	16f#|/	.	.	.	.	.	.	.	.	.	.	.	.	.	.	.	.	.	.	.	.	.	.	.
!	!	!	!	!	!	!	!	!	!	!	!	!	!	!	!	!	!	!	!	!	!	!	!	!	!	!	!LO:MO:mod=!null:null	!	!	!
!	!	!	!	!	!	!	!	!	!	!	!	!	!	!	!	!	!	!	!	!	!	!	!	!	!	!	!LO:TX:a:t=a	!	!	!
!	!	!	!	!	!	!	!	!	!	!	!	!	!	!	!	!	!	!	!	!	!	!	!	!	!	!	!LO:SIC:s=8a/L:v	!	!	!
8F#\	.	.	16d\	.	16a|/	.	16dd|\	.	8F#\J	.	.	8d\J	.	.	8a\J	.	.	.	8dd\J	.	.	.	8r	.	8r	.	8a/	.	8dd\L	.
.	.	.	16d\JJ	.	16a|/JJ	.	16dd|\JJ	.	.	.	.	.	.	.	.	.	.	.	.	.	.	.	.	.	.	.	.	.	.	.
!	!	!	!	!	!	!	!	!	!	!	!	!	!	!	!	!	!	!	!	!	!	!	!	!	!	!	!LO:LB:g=original	!	!	!
!	!	!	!	!	!	!	!	!	!	!	!	!	!	!	!	!	!	!	!	!	!	!	!	!	!	!	!LO:SIC:s=8g/:v	!	!	!
8G\	.	.	16d\LL	.	16g|\LL	.	16b|\LL	.	8G\L	-se-	.	8d\L	-se-	.	8g\L	-se-	.	.	8b\L	-se-	.	.	8gg\	.	8bb\	.	8g/L	.	8b\	.
.	.	.	16d\	.	16g|\	.	16b|\	.	.	.	.	.	.	.	.	.	.	.	.	.	.	.	.	.	.	.	.	.	.	.
8E\J	.	.	16a\	.	16cc#X|\	.	16gg|\	.	8E\J	.	.	8c#X\J	.	.	8a\J	.	.	.	8gg\J	.	.	.	8r	.	8r	.	8cc#X\J	.	8gg\J	.
.	.	.	16a\JJ	.	16cc#|\JJ	.	16gg|\JJ	.	.	.	.	.	.	.	.	.	.	.	.	.	.	.	.	.	.	.	.	.	.	.
=28	=28	=28	=28	=28	=28	=28	=28	=28	=28	=28	=28	=28	=28	=28	=28	=28	=28	=28	=28	=28	=28	=28	=28	=28	=28	=28	=28	=28	=28	=28
8A\L	4	.	4a\	.	16a|/LL	.	16ff#|\LL	.	8A\	-re-	.	8d\	-re-	.	8a\	-re-	.	.	8ff#\	-re-	.	.	8aa\	.	8aa\	.	8aa\L	.	8ff#\L	.
.	.	.	.	.	16a|/	.	16ff#|\	.	.	.	.	.	.	.	.	.	.	.	.	.	.	.	.	.	.	.	.	.	.	.
8A\	.	.	.	.	(16b/	.	(16gg\	.	8A\	-re	.	8e\	-re	.	16b\LL	-re	.	.	16gg\LL	-re	.	.	8r	.	8r	.	(16bb\L	.	(16gg\L	.
.	.	.	.	.	16g/JJ)	.	16ee\JJ)	.	.	.	.	.	.	.	16g\JJ	.	.	.	16ee\JJ	.	.	.	.	.	.	.	16gg\JJ)	.	16ee\JJ)	.
!	!	!	!	!	!	!	!	!	!	!	!	!	!	!	!LO:LB:g=original	!	!	!	!	!	!	!	!	!	!	!	!	!	!	!
!	!	!	!	!	!	!	!LO:SIC:s=16dd|\LL:v	!	!	!	!	!	!	!	!	!	!	!	!	!	!	!	!	!	!	!	!	!	!	!
8AA/	#	.	8a\L	.	16f#|/LL	.	16dd\LL	.	8A\	no-	.	8f#\	no-	.	8a\	no-	.	.	8dd\	no-	.	.	8aa\L	.	8aa\L	.	16ff#\LL	.	8dd\L	.
!	!	!	!	!	!	!	!LO:SIC:s=16dd|\:v	!	!	!	!	!	!	!	!	!	!	!	!	!	!	!	!	!	!	!	!	!	!	!
.	.	.	.	.	16f#|/	.	16dd\	.	.	.	.	.	.	.	.	.	.	.	.	.	.	.	.	.	.	.	16ff#\	.	.	.
!	!	!	!	!	!	!	!LO:SIC:s=(16ee\:v	!	!	!	!	!	!	!	!	!	!	!	!	!	!	!	!	!	!	!	!LO:SIC:s=(16gg\:v	!	!	!
8AA/J	.	.	8a\J	.	(16g/	.	16ee\	.	8AA/	-bis	.	16g\LL	-bis	.	8a\	-bis	.	.	16ee\LL	-bis	.	.	8aa\J	.	8aa\J	.	16gg\	.	(16ee\L	.
!	!	!	!	!	!	!	!LO:SIC:s=16cc#X)\JJ:v	!	!	!	!	!	!	!	!	!	!	!	!	!	!	!	!	!	!	!	!LO:SIC:s=16ee\JJ):v	!	!	!
.	.	.	.	.	16e/JJ)	.	16cc#X\JJ	.	.	.	.	16e\JJ	.	.	.	.	.	.	16cc#X\JJ	.	.	.	.	.	.	.	16ee\JJ	.	16cc#X\JJ)	.
!	!	!	!	!	!	!	!LO:LB:g=original	!	!	!	!	!	!	!	!	!	!	!	!LO:LB:g=original	!	!	!	!	!	!	!	!	!	!	!
=29	=29	=29	=29	=29	=29	=29	=29	=29	=29	=29	=29	=29	=29	=29	=29	=29	=29	=29	=29	=29	=29	=29	=29	=29	=29	=29	=29	=29	=29	=29
!!LO:MO:ori
.	.	.	.	.	.	.	.	.	.	.	.	.	.	.	16qqg/	.	.	.	16qqee/	.	.	.	.	.	.	.	8qqgg/	.	8qqeee/	.
!	!	!LO:DY:b:t=pia:color=red	!	!LO:DY:b:t=pia:color=red	!	!LO:DY:a:t=piano	!	!LO:DY:b:t=piano	!	!	!LO:DY:a:t=pia	!	!	!LO:DY:a:t=pia	!	!	!	!	!	!	!	!	!	!LO:DY:a	!	!LO:DY:b:t=pia	!	!LO:DY:b:t=pia	!	!
8r	.	p	8r	p	(16g/LL	p	(16ee\LL	p	8D\	San-	p	8A\	San-	p	8f#\	San-	.	.	8dd\	San-	.	.	8r	p	8r	p	2ff#\	p	2ddd\	.
.	.	.	.	.	16f#/)	.	16dd|\)	.	.	.	.	.	.	.	.	.	.	.	.	.	.	.	.	.	.	.	.	.	.	.
8D\L	5_ 3_	.	8a\L	.	16f#|/	.	16dd|\	.	8D\	-cta	.	8A\	-cta	.	8f#\	-cta	.	.	8dd\	-cta	.	.	8dd'/L	.	8aa'\L	.	.	.	.	.
.	.	.	.	.	16f#|/JJ	.	16dd|\JJ	.	.	.	.	.	.	.	.	.	.	.	.	.	.	.	.	.	.	.	.	.	.	.
*	*	*	*	*	*tremolo	*	*tremolo	*	*	*	*	*	*	*	*	*	*	*	*	*	*	*	*	*	*	*	*	*	*	*
!	!	!	!	!	!LO:TX:t=P:problem: 4x |	!	!LO:TX:t=P:problem: 4x |	!	!	!	!	!LO:LB:g=original	!	!	!	!	!	!	!	!	!	!	!	!	!	!	!	!	!	!
8D\	.	.	8a\	.	16f#|/LL	.	16dd|\LL	.	16D\	Tri-	.	8A\	Tri-	.	16f#\	Tri-	.	.	16dd\	Tri-	.	.	8dd'/	.	8aa'\	.	.	.	.	.
.	.	.	.	.	16f#/	.	16dd\	.	16D\	-ni-	.	.	.	.	16f#\	-ni-	.	.	16dd\	-ni-	.	.	.	.	.	.	.	.	.	.
!	!	!	!	!	!	!	!	!	!	!LO:MO:mod=-tas,	!	!	!	!	!	!LO:MO:mod=-tas,	!	!	!	!LO:MO:mod=-tas,	!	!	!	!	!	!	!	!	!	!
8D\J	.	.	8a\J	.	16f#/	.	16dd\	.	8D\	-tas	.	16A\	-ni-	.	8f#\	-tas	.	.	8dd\	-tas	.	.	8dd'/J	.	8aa'\J	.	.	.	.	.
!	!	!	!	!	!	!	!	!	!	!	!	!	!LO:MO:mod=-tas,	!	!	!	!	!	!	!	!	!	!	!	!	!	!	!	!	!
.	.	.	.	.	16f#/JJ	.	16dd\JJ	.	.	.	.	16A\	-tas	.	.	.	.	.	.	.	.	.	.	.	.	.	.	.	.	.
=30	=30	=30	=30	=30	=30	=30	=30	=30	=30	=30	=30	=30	=30	=30	=30	=30	=30	=30	=30	=30	=30	=30	=30	=30	=30	=30	=30	=30	=30	=30
!!LO:MO:end
!!LO:MO:mod
!! .	.	.	.	.	.	.	.	.	.	.	.	.	.	.	16qqg/	.	.	.	16qqee/	.	.	.	.	.	.	.	8qqgg/	.	8qqeee/	.
!! !	!	!	!	!	!	!	!	!	!	!	!	!	!	!	!	!	!	!	!	!	!	!	!	!	!	!	!	!	!	!
!! !	!	!	!	!	!	!	!	!	!	!	!	!	!	!	!	!	!	!LO:DY:ed=brack	!	!	!	!LO:DY:ed=brack	!	!	!	!	!	!	!	!LO:DY:ed=brack
!! 8r	.	.	8r	.	(16g/LL	p	(16ee\LL	p	8D\	San-	p	8A\	San-	p	8f#\	San-	.	p	8dd\	San-	.	p	8r	.	8r	.	2ff#\	p	2ddd\	p
!! .	.	.	.	.	16f#/)	.	16dd|\)	.	.	.	.	.	.	.	.	.	.	.	.	.	.	.	.	.	.	.	.	.	.	.
!! 8D\L	5_ 3_	p	8a\L	p	16f#|/	.	16dd|\	.	8D\	-cta	.	8A\	-cta	.	8f#\	-cta	.	.	8dd\	-cta	.	.	8dd'/L	p	8aa'\L	p	.	.	.	.
!! .	.	.	.	.	16f#|/JJ	.	16dd|\JJ	.	.	.	.	.	.	.	.	.	.	.	.	.	.	.	.	.	.	.	.	.	.	.
!! *	*	*	*	*	*tremolo	*	*tremolo	*	*	*	*	*	*	*	*	*	*	*	*	*	*	*	*	*	*	*	*	*	*	*
!! !	!	!	!	!	!LO:TX:t=P:problem: 4x |	!	!	!	!	!	!	!LO:LB:g=original	!	!	!	!	!	!	!	!	!	!	!	!	!	!	!	!	!	!
!! 8D\	.	.	8a\	.	16f#|/LL	.	16dd|\LL	.	16D\	Tri-	.	16A\	Tri-	.	16f#\	Tri-	.	.	16dd\	Tri-	.	.	8dd'/	.	8aa'\	.	.	.	.	.
!! .	.	.	.	.	16f#/	.	16dd\	.	16D\	-ni-	.	16A\	-ni-	.	16f#\	-ni-	.	.	16dd\	-ni-	.	.	.	.	.	.	.	.	.	.
!! 8D\J	.	.	8a\J	.	16f#/	.	16dd\	.	8D\	-tas,	.	8A\	-tas,	.	8f#\	-tas,	.	.	8dd\	-tas,	.	.	8dd'/J	.	8aa'\J	.	.	.	.	.
!! .	.	.	.	.	16f#/JJ	.	16dd\JJ	.	.	.	.	.	.	.	.	.	.	.	.	.	.	.	.	.	.	.	.	.	.	.
!! =30	=30	=30	=30	=30	=30	=30	=30	=30	=30	=30	=30	=30	=30	=30	=30	=30	=30	=30	=30	=30	=30	=30	=30	=30	=30	=30	=30	=30	=30	=30
!!LO:MO:end
.	.	.	.	.	.	.	.	.	.	.	.	.	.	.	16qqg/	.	.	.	16qqee/	.	.	.	.	.	.	.	8qqgg/	.	8qqeee/	.
8r	.	.	8r	.	(16g/LL	.	(16ee\LL	.	8Cn/	u-	.	8A\	u-	.	8f#\	u-	.	.	8dd\	u-	.	.	8r	.	8r	.	2ee\	.	2ddd\	.
.	.	.	.	.	16f#X/)	.	16dd\)	.	.	.	.	.	.	.	.	.	.	.	.	.	.	.	.	.	.	.	.	.	.	.
8Cn/L	X X	.	8a\L	.	16f#|/	.	16dd|\	.	8C/	-nus	.	8A\	-nus	.	8f#\	-nus	.	.	8dd\	-nus	.	.	8dd'/L	.	8aa'\L	.	.	.	.	.
.	.	.	.	.	16f#|/JJ	.	16dd|\JJ	.	.	.	.	.	.	.	.	.	.	.	.	.	.	.	.	.	.	.	.	.	.	.
!	!	!	!	!	!LO:TX:t=P:problem: 4x |	!	!LO:TX:t=P:problem: 4x |	!	!LO:LB:g=original	!	!	!	!	!	!	!	!	!	!	!	!	!	!	!	!	!	!	!	!	!
8C/	.	.	8a\	.	16f#|/LL	.	16dd|\LL	.	8C/	De-	.	8A\	De-	.	8f#\	De-	.	.	8dd\	De-	.	.	8dd'/	.	8aa'\	.	.	.	.	.
.	.	.	.	.	16f#/	.	16dd\	.	.	.	.	.	.	.	.	.	.	.	.	.	.	.	.	.	.	.	.	.	.	.
!	!	!	!	!	!	!	!	!	!	!LO:MO:mod=-us,	!	!	!LO:MO:mod=-us,	!	!	!LO:MO:mod=-us,	!	!	!	!LO:MO:mod=-us,	!	!	!	!	!	!	!	!	!	!
8C/J	.	.	8a\J	.	16f#/	.	16dd\	.	8C/	-us	.	8A\	-us	.	8f#\	-us	.	.	8dd\	-us	.	.	8dd'/J	.	8aa'\J	.	.	.	.	.
.	.	.	.	.	16f#/JJ	.	16dd\JJ	.	.	.	.	.	.	.	.	.	.	.	.	.	.	.	.	.	.	.	.	.	.	.
*	*	*	*	*	*Xtremolo	*	*Xtremolo	*	*	*	*	*	*	*	*	*	*	*	*	*	*	*	*	*	*	*	*	*	*	*
=31	=31	=31	=31	=31	=31	=31	=31	=31	=31	=31	=31	=31	=31	=31	=31	=31	=31	=31	=31	=31	=31	=31	=31	=31	=31	=31	=31	=31	=31	=31
.	.	.	.	.	.	.	.	.	.	.	.	.	.	.	16qqa/	.	.	.	16qqee/	.	.	.	.	.	.	.	.	.	16qqeee/	.
!	!	!	!	!	!	!	!	!	!	!	!	!LO:SIC:s=8G/:v	!	!	!	!	!	!	!	!	!	!	!	!	!	!	!	!	!	!
!	!	!	!	!LO:DY:b:color=red	!	!	!	!	!	!	!LO:DY:a:t=forto	!	!	!	!	!	!	!	!	!	!	!	!	!	!	!	!	!LO:DY:b:t=for.	!	!
!	!	!	!	!LO:MO:mod=!null:null	!	!	!	!	!	!	!	!	!	!LO:DY:t= :mod=%s	!	!	!	!LO:DY:t= :mod=%s	!	!	!	!LO:DY:t= :mod=%s	!	!	!	!	!	!	!	!LO:DY:t= :mod=%s
!	!	!	!	!	!	!	!	!	!	!	!	!	!	!LO:MO:mod=!LO&colon;DY&colon;ed=	!	!	!	!LO:MO:mod=!LO&colon;DY&colon;ed=brack	!	!	!	!LO:MO:mod=!LO&colon;DY&colon;ed=brack	!	!	!	!	!	!	!	!LO:MO:mod=!LO&colon;DY&colon;ed=brack
!	!	!	!	!	!	!	!	!	!	!	!	!	!	!null	!	!	!	!null	!	!	!	!null	!	!	!	!	!	!	!	!null
8r	.	.	8r	f	8g/L	<	(16ee\LL	<	8G\	mi-	f	8F#/	mi-	f	8g\	mi-	.	f	8dd\	mi-	.	f	4gg\	.	4bb\	.	4gg\	f	4ddd\	f
.	.	.	.	.	.	.	16dd\)	.	.	.	.	.	.	.	.	.	.	.	.	.	.	.	.	.	.	.	.	.	.	.
!	!	!	!	!	!LO:SIC:s=16g|/L:v	!	!	!	!	!	!	!	!	!	!	!	!	!	!	!	!	!	!	!	!	!	!	!	!	!
!	!	!LO:DY:b:t=for:color=red	!	!	!	!	!	!	!	!	!	!	!	!	!	!	!	!	!	!	!	!	!	!	!	!	!	!	!	!
!	!	!	!	!LO:DY:t= :mod=%s	!	!	!	!	!	!	!	!	!	!	!	!	!	!	!	!	!	!	!	!	!	!	!	!	!	!
!	!	!	!	!LO:MO:mod=!LO&colon;DY&colon;ed=	!	!	!	!	!	!	!	!	!	!	!	!	!	!	!	!	!	!	!	!	!	!	!	!	!	!
!	!	!	!	!null	!	!	!	!	!	!	!	!	!	!	!	!	!	!	!	!	!	!	!	!	!	!	!	!	!	!
8BB/Ls	.	f	8d\L	f	16g/L	.	16dd|\	.	8B\	-se-	.	8d\	-se-	.	8g\	-se-	.	.	8dd\	-se-	.	.	.	.	.	.	.	.	.	.
!	!	!	!	!	!LO:SIC:s=16g|/JJ:v	!	!	!	!	!	!	!	!	!	!	!	!	!	!	!	!	!	!	!	!	!	!	!	!	!
.	.	.	.	.	16g/JJ	.	16dd|\JJ	.	.	.	.	.	.	.	.	.	.	.	.	.	.	.	.	.	.	.	.	.	.	.
!	!	!	!	!	!	!	!	!	!	!	!	!	!	!	!	!	!	!	!	!	!	!	!	!	!	!	!LO:SIC:s=(16bb\LL:v	!	!	!
!	!	!	!	!	!	!	!	!	!	!	!	!	!	!	!	!	!	!	!	!	!	!	!LO:SIC:s=(16bb\LL:v	!	!	!	!	!	!	!
!	!	!	!	!	!	!LO:DY:b:t=forto	!	!LO:DY:b:t=forto	!	!	!	!	!	!LO:DY:b:t=forto	!	!	!	!	!	!	!	!	!	!LO:DY:a	!	!	!	!	!	!
!	!	!	!	!	!	!	!	!	!	!	!	!	!	!LO:MO:mod=!null:null	!	!	!	!	!	!	!	!	!	!	!	!	!	!	!	!
!	!	!	!	!	!	!	!	!	!	!	!	!	!	!	!	!	!	!	!	!	!	!	!	!	!	!LO:DY:t= :mod=%s	!	!	!	!
!	!	!	!	!	!	!	!	!	!	!	!	!	!	!	!	!	!	!	!	!	!	!	!	!	!	!LO:MO:mod=!LO&colon;DY&colon;ed=brack	!	!	!	!
!	!	!	!	!	!	!	!	!	!	!	!	!	!	!	!	!	!	!	!	!	!	!	!	!	!	!null	!	!	!	!
8AA/	.	.	8f#\	.	(16b/LL	[ f	(16dd\LL	[ f	8A\	-re-	.	8f#\	-re-	f	16b\LL	-re-	.	.	16dd\LL	-re-	.	.	16bb\LL	f	(16ddd\LL	f	16bb\LL	.	(16ddd\LL	.
!	!	!	!	!	!	!	!	!	!	!	!	!	!	!	!	!	!	!	!	!	!	!	!LO:SIC:s=16aa\):v	!	!	!	!	!	!	!
!	!	!	!	!	!	!	!	!	!	!	!	!	!	!	!	!	!	!	!	!	!	!	!	!	!	!	!LO:SIC:s=16aa\):v	!	!	!
.	.	.	.	.	16a/)	.	16ccn\)	.	.	.	.	.	.	.	16a\JJ	.	.	.	16ccn\JJ	.	.	.	16aa\	.	16ccc\)	.	16aa\	.	16ccc\)	.
!	!	!	!	!	!	!	!	!	!	!	!	!	!	!	!	!	!	!	!	!	!	!	!	!	!LO:SIC:s=(16ccc\:v	!	!	!	!	!
!	!	!	!	!	!	!	!	!	!	!	!	!	!	!	!	!	!	!	!	!	!	!	!LO:SIC:s=(16aa\:v	!	!	!	!	!	!	!
!	!	!	!	!	!	!	!	!	!	!	!	!	!	!	!	!	!	!	!	!	!	!	!	!	!	!	!LO:SIC:s=(16aa\:v	!	!	!
8GG/J	.	.	8d\J	.	(16a/	.	(16cc\	.	8G\	-re	.	8d\	-re	.	16a\LL	-re	.	.	16cc\LL	-re	.	.	16aa\	.	16ccc\	.	16aa\	.	(16ccc\	.
!	!	!	!	!	!	!	!	!	!	!	!	!	!	!	!	!	!	!	!	!	!	!	!	!	!LO:SIC:s=16bb\JJ):v	!	!	!	!	!
!	!	!	!	!	!	!	!	!	!	!	!	!	!	!	!	!	!	!	!	!	!	!	!LO:SIC:s=16gg\JJ):v	!	!	!	!	!	!	!
!	!	!	!	!	!	!	!	!	!	!	!	!	!	!	!	!	!	!	!	!	!	!	!	!	!	!	!LO:SIC:s=16gg\JJ):v	!	!	!
.	.	.	.	.	16g/JJ)	.	16b\JJ)	.	.	.	.	.	.	.	16g\JJ	.	.	.	16b\JJ	.	.	.	16gg\JJ	.	16bb|\JJ	.	16gg\JJ	.	16bb\JJ)	.
=32	=32	=32	=32	=32	=32	=32	=32	=32	=32	=32	=32	=32	=32	=32	=32	=32	=32	=32	=32	=32	=32	=32	=32	=32	=32	=32	=32	=32	=32	=32
!LO:TX:t=P:problem: mixed beam	!	!	!	!	!	!	!	!	!	!	!	!	!	!	!	!	!	!	!	!	!	!	!	!	!	!	!	!	!	!
!	!	!	!	!	!	!	!LO:SIC:s=8b|/L:v	!	!	!	!	!	!	!	!	!	!	!	!	!	!	!	!	!	!	!	!	!	!	!
!LO:SIC:s=8D|\L:v	!	!	!	!	!	!	!	!	!	!	!	!	!	!	!	!	!	!	!	!	!	!	!	!	!	!	!	!	!	!
!	!	!	!	!	!	!	!	!	!	!	!	!	!	!	!	!	!	!	!	!	!	!	!LO:SIC:s=8gg'\L:v	!	!	!	!	!	!	!
8D\L	4	.	8d|\L	.	8g|/L	.	8b/L	.	8D\	no-	.	8d\	no-	.	8g\	no-	.	.	8b\	no-	.	.	8gg\L	.	8bb'\L	.	(8gg\L	.	(8bb\L	.
!	!	!	!	!	!	!	!LO:SIC:s=8a|/J:v	!	!	!	!	!	!	!	!	!	!	!	!	!	!	!	!	!	!	!	!	!	!	!
!	!	!	!	!	!	!	!	!	!	!	!	!	!	!	!	!	!	!	!	!	!	!	!LO:SIC:s=8dd'\J:v	!	!	!	!	!	!	!
8DD|/J	3	.	8d|\J	.	8f#|/J	.	8a/J	.	8d\	-bis	.	8d\	-bis	.	8f#\	-bis	.	.	8a\	-bis	.	.	8dd\J	.	8aa'\J	.	8ff#\J)	.	8aa\J)	.
16D|/LL	.	.	(16d\LL	.	4r	.	4r	.	4r	.	.	4r	.	.	4r	.	.	.	4r	.	.	.	4r	.	4r	.	4r	.	4r	.
16C|/	.	.	16cn\	.	.	.	.	.	.	.	.	.	.	.	.	.	.	.	.	.	.	.	.	.	.	.	.	.	.	.
16BB|/	.	.	16B\	.	.	.	.	.	.	.	.	.	.	.	.	.	.	.	.	.	.	.	.	.	.	.	.	.	.	.
16AA|/JJ	.	.	16A\JJ)	.	.	.	.	.	.	.	.	.	.	.	.	.	.	.	.	.	.	.	.	.	.	.	.	.	.	.
=33	=33	=33	=33	=33	=33	=33	=33	=33	=33	=33	=33	=33	=33	=33	=33	=33	=33	=33	=33	=33	=33	=33	=33	=33	=33	=33	=33	=33	=33	=33
!	!	!	!	!	!	!	!	!	!	!	!	!	!	!	!	!	!	!	!	!	!	!	!	!	!	!	!LO:SIC:s=8.b\L:v	!	!	!
8GG/L	.	.	8d\L	.	8.bL 8.d 8.G/	.	8.ggL 8.b 8.d 8.G/	.	4G\	San-	.	4d\	San-	.	8.g\L	San-	.	.	8.b\L	San-	.	.	4g/	.	4dd/	.	8.cc\L	.	8.gg\L	.
8G\J	.	.	8d\J	.	.	.	.	.	.	.	.	.	.	.	.	.	.	.	.	.	.	.	.	.	.	.	.	.	.	.
!	!	!	!	!	!	!	!	!	!	!	!	!	!	!	!	!	!	!	!	!	!	!	!	!	!	!	!LO:SIC:s=(32gg\LL:v	!	!	!
.	.	.	.	.	(32g/LL	.	(32b/LL	.	.	.	.	.	.	.	16a\Jk	.	.	.	16cc\Jk	.	.	.	.	.	.	.	32gg\LL	.	(32bb\LL	.
!	!	!	!	!	!	!	!	!	!	!	!	!	!	!	!	!	!	!	!	!	!	!	!	!	!	!	!LO:SIC:s=32aa\JJJ):v	!	!	!
.	.	.	.	.	32a/JJJ)	.	32cc/JJJ)	.	.	.	.	.	.	.	.	.	.	.	.	.	.	.	.	.	.	.	32aa\JJJ	.	32ccc\JJJ)	.
!	!	!	!	!	!	!	!	!	!	!	!	!	!	!	!	!	!	!	!	!	!	!	!	!	!	!	!LO:SIC:s=(16bb\LL:v	!	!	!
8r	.	.	8r	.	(16b\LL	.	(16dd\LL	.	8G\	-cta	.	8d\	-cta	.	8b\	-cta	.	.	8dd\	-cta	.	.	4r	.	4r	.	16bb\LL	.	(16ddd\LL	.
!	!	!	!	!	!	!	!	!	!	!	!	!	!	!	!	!	!	!	!	!	!	!	!	!	!	!	!LO:SIC:s=16gg\):v	!	!	!
.	.	.	.	.	16g\)	.	16b\)	.	.	.	.	.	.	.	.	.	.	.	.	.	.	.	.	.	.	.	16gg\	.	16bb\)	.
!	!	!	!	!	!	!	!LO:SIC:s=(16ee\:v	!	!	!	!	!	!	!	!	!	!	!	!	!	!	!	!	!	!	!	!	!	!	!
!	!	!	!	!	!	!	!	!	!	!	!	!	!	!	!	!	!	!	!	!	!	!	!	!	!	!	!LO:SIC:s=(16ccc\:v	!	!	!
8C/	.	.	8e\	.	(16cc\	.	16ee|\	.	8C/	Ma-	.	8e\	Ma-	.	16cc\LL	Ma-	.	.	16ee\LL	Ma-	.	.	.	.	.	.	16ccc\	.	(16eee\	.
!	!	!	!	!	!	!	!LO:SIC:s=16cc\JJ):v	!	!	!	!	!	!	!	!	!	!	!	!	!	!	!	!	!	!	!	!	!	!	!
!	!	!	!	!	!	!	!	!	!	!	!	!	!	!	!	!	!	!	!	!	!	!	!	!	!	!	!LO:SIC:s=16aa\JJ):v	!	!	!
.	.	.	.	.	16a\JJ)	.	16cc|\JJ	.	.	.	.	.	.	.	16a\JJ	.	.	.	16cc\JJ	.	.	.	.	.	.	.	16aa\JJ	.	16ccc\JJ)	.
!	!	!	!	!	!	!	!	!	!	!	!	!	!	!	!	!	!	!	!	!	!	!	!	!	!	!	!	!	!LO:LB:g=original	!
=34	=34	=34	=34	=34	=34	=34	=34	=34	=34	=34	=34	=34	=34	=34	=34	=34	=34	=34	=34	=34	=34	=34	=34	=34	=34	=34	=34	=34	=34	=34
!	!	!	!	!	!	!	!LO:SIC:s=8a'L 8d/:v	!	!	!	!	!	!	!	!	!	!	!	!	!	!	!	!	!	!	!	!	!	!	!
!	!	!	!	!	!	!	!	!	!	!	!	!	!	!	!	!	!	!	!	!	!	!	!LO:SIC:s=8dd'/L:v	!	!	!	!	!	!	!
!	!	!	!	!	!	!	!	!	!	!	!	!	!	!	!	!	!	!	!	!	!	!	!	!	!	!	!	!	!LO:SIC:s=8aa'\L:v	!
8D\L	.	.	8d\L	.	8f#'/L	.	8aL 8d/	.	4D\	-ri-	.	4d\	-ri-	.	4f#\	-ri-	.	.	4a\	-ri-	.	.	8dd/L	.	8aa'\L	.	8ff#'\L	.	8aa\L	.
!	!	!	!	!	!	!	!LO:SIC:s=8a' 8d/:v	!	!	!	!	!	!	!	!	!	!	!	!	!	!	!	!	!	!	!	!	!	!	!
!	!	!	!	!	!	!	!	!	!	!	!	!	!	!	!	!	!	!	!	!	!	!	!LO:SIC:s=8dd'/:v	!	!	!	!	!	!	!
!	!	!	!	!	!	!	!	!	!	!	!	!	!	!	!	!	!	!	!	!	!	!	!	!	!	!	!	!	!LO:SIC:s=8aa'\:v	!
8D\	.	.	8d\	.	8f#'/	.	8a 8d/	.	.	.	.	.	.	.	.	.	.	.	.	.	.	.	8dd/	.	8aa'\	.	8ff#'\	.	8aa\	.
!	!	!	!	!	!	!	!	!	!	!LO:MO:mod=-a,	!	!	!LO:MO:mod=-a,	!	!	!LO:MO:mod=-a,	!	!	!	!LO:MO:mod=-a,	!	!	!	!	!	!	!	!	!	!
!	!	!	!	!	!	!	!	!	!	!	!	!	!	!	!	!	!	!	!	!	!	!	!LO:SIC:s=8dd'/J:v	!	!	!	!	!	!	!
!	!	!	!	!	!	!	!LO:SIC:s=8a'J 8d/:v	!	!	!	!	!	!	!	!	!	!	!	!	!	!	!	!	!	!	!	!	!	!	!
!	!	!	!	!	!	!	!	!	!	!	!	!	!	!	!	!	!	!	!	!	!	!	!	!	!	!	!	!	!LO:SIC:s=8aa'\J:v	!
8D\J	.	.	8d\J	.	8f#'/J	.	8aJ 8d/	.	8D\	-a	.	8d\	-a	.	8f#\	-a	.	.	8a\	-a	.	.	8dd/J	.	8aa'\J	.	8ff#'\J	.	8aa\J	.
16r	.	.	16r	.	16r	.	16r	.	16r	.	.	16r	.	.	16r	.	.	.	16r	.	.	.	8r	.	8r	.	16r	.	16r	.
!	!	!	!	!	!	!	!	!	!	!	!	!LO:SIC:s=16e\:v	!	!	!	!	!	!	!	!	!	!	!	!	!	!	!	!	!	!
16E\	.	.	16e\	.	16g/	.	16b\	.	16E\	o-	.	16d\	o-	.	16g\	o-	.	.	16b\	o-	.	.	.	.	.	.	16gg\	.	16bb\	.
!LO:LB:g=original	!	!	!	!	!	!	!	!	!	!	!	!	!	!	!LO:LB:g=original	!	!	!	!	!	!	!	!	!	!	!	!	!	!	!
=35	=35	=35	=35	=35	=35	=35	=35	=35	=35	=35	=35	=35	=35	=35	=35	=35	=35	=35	=35	=35	=35	=35	=35	=35	=35	=35	=35	=35	=35	=35
8C/L	.	.	8.c\L	.	8.e/L	.	8.cc\L	.	8.C/	-ra	.	8.e\	-ra	.	8.a\	-ra	.	.	8.cc\	-ra	.	.	4r	.	4r	.	8.ee\L	.	8.ccc\L	.
8AA/	.	.	.	.	.	.	.	.	.	.	.	.	.	.	.	.	.	.	.	.	.	.	.	.	.	.	.	.	.	.
!	!	!	!	!	!	!	!	!	!	!	!	!	!	!	!	!	!	!	!LO:LB:g=original	!	!	!	!	!	!	!	!	!	!	!
.	.	.	16e\Jk	.	16c/Jk	.	16a\Jk	.	16AA/	pro	.	16c\	pro	.	16a\	pro	.	.	16a\	pro	.	.	.	.	.	.	16aa\Jk	.	16ccc\Jk	.
8D/	.	.	8d\L	.	(16d/LL	.	(16b/LL	.	8D\	no-	.	16d\LL	no-	.	8d\	no-	.	.	16b\LL	no-	.	.	8gg/L	.	8bb\L	.	8gg\L	.	8bb\L	.
.	.	.	.	.	16c/	.	16a/	.	.	.	.	16c\JJ	.	.	.	.	.	.	16a\JJ	.	.	.	.	.	.	.	.	.	.	.
8DD/J	.	.	8d\J	.	16B/)	.	16g/	.	8D\	-bis	.	16B\LL	-bis	.	8d\	-bis	.	.	16g/LL	-bis	.	.	8dd/J	.	8aa\J	.	8ff#\J	.	8aa\J	.
.	.	.	.	.	16A/JJ	.	16f#/JJ)	.	.	.	.	16A\JJ	.	.	.	.	.	.	16f#/JJ	.	.	.	.	.	.	.	.	.	.	.
=36	=36	=36	=36	=36	=36	=36	=36	=36	=36	=36	=36	=36	=36	=36	=36	=36	=36	=36	=36	=36	=36	=36	=36	=36	=36	=36	=36	=36	=36	=36
!	!	!	!	!	!LO:SIC:s=16d|/LL:v	!	!	!	!	!	!	!	!	!	!	!	!	!	!	!	!	!	!	!	!	!	!	!	!	!
!LO:TX:t=P:problem: mixed beam	!	!LO:DY:b:t=pia:color=red	!LO:TX:t=P:problem: mixed beam	!LO:DY:b:t=pia:color=red	!	!LO:DY:b:t=piano	!	!LO:DY:b:t=pia	!	!	!LO:DY:a:t=pia	!	!	!LO:DY:a:t=pia	!	!	!	!	!	!	!	!	!	!LO:DY:a:t=pia	!	!LO:DY:a:t=pia	!	!LO:DY:b:t=pia	!LO:TX:t=P:problem: mixed beam	!
!	!	!	!	!	!	!	!	!	!	!	!	!	!	!	!	!LO:MO:mod=San-	!	!	!	!	!	!	!	!	!	!	!	!	!	!
!	!	!	!	!	!	!	!	!	!	!	!	!	!	!	!	!	!	!LO:DY:t= :mod=%s	!	!	!	!LO:DY:t= :mod=%s	!	!	!	!	!	!	!	!LO:DY:t= :mod=%s
!	!	!	!	!	!	!	!	!	!	!	!	!	!	!	!	!	!	!LO:MO:mod=!LO&colon;DY&colon;ed=brack	!	!	!	!LO:MO:mod=!LO&colon;DY&colon;ed=brack	!	!	!	!	!	!	!	!LO:MO:mod=!LO&colon;DY&colon;ed=
!	!	!	!	!	!	!	!	!	!	!	!	!	!	!	!	!	!	!null	!	!	!	!null	!	!	!	!	!	!	!	!null
8GG/L	.	p	(16G/LL	p	16d/LL	p	16b|\LL	p	8G\	San-	p	8G/	San-	p	8fn\	S(anc)-	.	p	8b\	San-	.	p	2g/	p	2gg\	p	4ffn\	p	8bb\L	p
!	!	!	!	!	!LO:SIC:s=16d|/:v	!	!	!	!	!	!	!	!	!	!	!	!	!	!	!	!	!	!	!	!	!	!	!	!	!
.	.	.	16g\)	.	16d/	.	16b|\	.	.	.	.	.	.	.	.	.	.	.	.	.	.	.	.	.	.	.	.	.	.	.
!	!	!	!	!	!	!	!	!	!	!	!	!	!	!	!	!LO:MO:mod=-cta	!	!	!	!	!	!	!	!	!	!	!	!	!	!
8G\	.	.	16g|\	.	16fn|/	.	16dd|\	.	8Fn\	-cta	.	8G/	-cta	.	8f\	-ta	.	.	8dd\	-cta	.	.	.	.	.	.	.	.	8cc/J	.
.	.	.	16g|\JJ	.	16f|/JJ	.	16dd|\JJ	.	.	.	.	.	.	.	.	.	.	.	.	.	.	.	.	.	.	.	.	.	.	.
*	*	*	*tremolo	*	*	*	*	*	*	*	*	*	*	*	*	*	*	*	*	*	*	*	*	*	*	*	*	*	*	*
!	!	!	!LO:TX:t=P:problem: 4x |	!	!LO:TX:t=P:problem: mixed beam	!	!	!	!	!	!	!LO:LB:g=original	!	!	!	!	!	!	!	!	!	!	!	!	!	!	!	!	!	!LO:DY:a:t=pia
!	!	!	!	!	!	!	!	!	!	!	!	!	!	!	!	!	!	!	!	!	!	!	!	!	!	!	!	!	!	!LO:MO:mod=!null:null
8E\	.	.	16g|\LL	.	16e|/LL	.	16cc|\LL	.	8E\	De-	.	8G/	De-	.	8e\	De-	.	.	8cc\	De-	.	.	.	.	.	.	8ee\L	.	8cc\L	p
.	.	.	16g\	.	16e|/	.	16cc|\	.	.	.	.	.	.	.	.	.	.	.	.	.	.	.	.	.	.	.	.	.	.	.
8C\J	.	.	16g\	.	16cc|\	.	16ee|\	.	8C/	-i	.	8c\	-i	.	8g\	-i	.	.	8ee\	-i	.	.	.	.	.	.	8cc\J	.	8ee\J	.
.	.	.	16g\JJ	.	16cc|\JJ	.	16ee|\JJ	.	.	.	.	.	.	.	.	.	.	.	.	.	.	.	.	.	.	.	.	.	.	.
=37	=37	=37	=37	=37	=37	=37	=37	=37	=37	=37	=37	=37	=37	=37	=37	=37	=37	=37	=37	=37	=37	=37	=37	=37	=37	=37	=37	=37	=37	=37
!	!	!	!LO:TX:t=P:problem: 4x |	!	!	!	!	!	!	!	!	!	!	!	!	!	!	!	!	!	!	!	!	!	!	!	!	!	!	!
!	!	!	!	!	!	!	!	!	!	!	!	!	!	!	!	!	!	!	!	!LO:MO:mod=Ge-	!	!	!	!	!	!	!	!	!	!
8BB/L	.	.	16g|\LL	.	16b\LL	<	16dd\LL	<	8BB/	Ge-	.	8B\	Ge-	.	8g\	Ge-	.	.	8dd\	ge-	.	.	4g/	.	4gg\	.	8b\L	.	8dd\L	.
.	.	.	16g\	.	16b\	.	16dd\	.	.	.	.	.	.	.	.	.	.	.	.	.	.	.	.	.	.	.	.	.	.	.
!	!	!	!	!	!	!	!	!	!	!LO:MO:mod=-ne-	!	!	!LO:MO:mod=-ne-	!	!	!LO:MO:mod=-ne-	!	!	!	!LO:MO:mod=-ne-	!	!	!	!	!	!	!	!	!	!
8GG/	.	.	16g\	.	16dd\	.	16ffn\	.	8GG/	-ni-	.	8d\	-ni-	.	8g\	-ni-	.	.	8ffn\	-ni-	.	.	.	.	.	.	8dd\J	.	8ffn\J	.
.	.	.	16g\JJ	.	16dd\JJ	.	16ff\JJ	.	.	.	.	.	.	.	.	.	.	.	.	.	.	.	.	.	.	.	.	.	.	.
.	.	.	.	.	.	.	.	.	.	.	.	.	.	.	.	.	.	.	8qqff/	.	.	.	.	.	.	.	.	.	.	.
!	!	!	!LO:LB:g=original	!	!	!LO:DY:b:t=forto	!LO:LB:g=original	!LO:DY:b:t=forto	!	!	!	!	!	!	!	!	!	!	!	!	!	!	!	!	!	!	!	!	!	!
!	!	!	!	!	!	!	!	!	!	!LO:MO:mod=-trix,	!	!	!LO:MO:mod=-trix,	!	!	!LO:MO:mod=-trix,	!	!	!	!LO:MO:mod=-trix,	!	!	!	!	!	!	!	!	!	!
!	!	!	!	!	!	!	!LO:SIC:s=(16ff\LL:v	!	!	!	!	!	!	!	!	!	!	!	!	!	!	!	!	!	!	!	!	!	!	!
8C/	.	.	8g\	.	(16dd/LL	[ f	16ff\LL	[ f	8C/	-trix	.	8c\	-trix	.	8g\	-trix	.	.	8ee\	-tis	.	.	8g/	.	8gg\	.	8cc\	.	8ee\	.
.	.	.	.	.	16cc/	.	16ee\	.	.	.	.	.	.	.	.	.	.	.	.	.	.	.	.	.	.	.	.	.	.	.
8CC/J	.	.	8r	.	16fn/	.	16dd\	.	8r	.	.	8r	.	.	8r	.	.	.	8r	.	.	.	8r	.	8r	.	8r	.	8r	.
!	!	!	!	!	!	!	!LO:SIC:s=16ccn\JJ):v	!	!	!	!	!	!	!	!	!	!	!	!	!	!	!	!	!	!	!	!	!	!	!
.	.	.	.	.	16e/JJ)	.	16ccn\JJ	.	.	.	.	.	.	.	.	.	.	.	.	.	.	.	.	.	.	.	.	.	.	.
!	!	!	!	!	!LO:LB:g=original	!	!	!	!LO:LB:g=original	!	!	!	!	!	!	!	!	!	!	!	!	!	!	!	!	!	!LO:LB:g=original	!	!	!
=38	=38	=38	=38	=38	=38	=38	=38	=38	=38	=38	=38	=38	=38	=38	=38	=38	=38	=38	=38	=38	=38	=38	=38	=38	=38	=38	=38	=38	=38	=38
*	*	*	*	*	*	*	*	*	*	*	*	*	*	*	*	*	*	*	*	*	*	*	*2\right	*	*	*	*	*	*	*
!	!	!	!	!	!LO:SIC:s=16e|/LL:v	!	!	!	!	!	!	!	!	!	!	!	!	!	!	!	!	!	!	!	!	!	!	!	!	!
!	!	!	!	!	!	!LO:DY:b:t=pia	!	!LO:DY:b:t=pia	!	!	!	!	!	!	!	!	!	!	!	!	!	!	!	!	!	!	!	!	!	!
8AA/L	.	.	(16A\LL	p	16e/LL	p	16cc#X|\LL	p	8AA/	San-	.	8A\	San-	.	8e\	San-	.	.	8cc#X\	San-	.	.	2aa\	.	2aa\	.	4g/	.	4cc#X\	.
!	!	!	!	!	!LO:SIC:s=16e|/:v	!	!	!	!	!	!	!	!	!	!	!	!	!	!	!	!	!	!	!	!	!	!	!	!	!
.	.	.	16a\)	.	16e/	.	16cc#|\	.	.	.	.	.	.	.	.	.	.	.	.	.	.	.	.	.	.	.	.	.	.	.
8A\	.	.	16a|\	.	16g|/	.	16ee|\	.	8A\	-cta	.	8A\	-cta	.	8g\	-cta	.	.	8ee\	-cta	.	.	.	.	.	.	.	.	.	.
.	.	.	16a|\JJ	.	16g|/JJ	.	16ee|\JJ	.	.	.	.	.	.	.	.	.	.	.	.	.	.	.	.	.	.	.	.	.	.	.
!	!	!	!LO:TX:t=P:problem: 4x |	!	!LO:TX:t=P:problem: mixed beam	!	!	!	!	!	!	!	!	!	!	!	!	!	!	!	!	!	!	!	!	!	!	!	!	!
!	!	!	!	!	!	!	!	!	!	!	!	!	!	!	!	!	!	!	!	!LO:MO:mod=De-	!	!	!	!	!	!	!	!	!	!
8F#\	.	.	16a|\LL	.	16f#X|/LL	.	16dd|\LL	.	8F#X\	De-	.	8A\	De-	.	8f#X\	De-	.	.	8dd\	de-	.	.	.	.	.	.	8f#X/L	.	8dd\L	.
.	.	.	16a\	.	16f#|/	.	16dd|\	.	.	.	.	.	.	.	.	.	.	.	.	.	.	.	.	.	.	.	.	.	.	.
!	!	!	!	!	!	!	!	!LO:MO:null:mod=.	!	!	!	!	!	!	!	!	!	!	!	!	!	!	!	!	!	!	!	!	!	!
8D\J	.	.	16a\	.	16dd|\	.	16ff#X|\	<	8D\	-i	.	8d\	-i	.	8a\	-i	.	.	8ff#X\	-i	.	.	.	.	.	.	8dd\J	.	8ff#X\J	.
.	.	.	16a\JJ	.	16dd|\JJ	.	16ff#|\JJ	.	.	.	.	.	.	.	.	.	.	.	.	.	.	.	.	.	.	.	.	.	.	.
!	!	!	!	!	!	!	!	!	!	!	!	!	!	!	!	!	!	!	!	!	!	!	!LO:LB:g=original	!	!	!	!	!	!	!
=39	=39	=39	=39	=39	=39	=39	=39	=39	=39	=39	=39	=39	=39	=39	=39	=39	=39	=39	=39	=39	=39	=39	=39	=39	=39	=39	=39	=39	=39	=39
!	!	!	!LO:TX:t=P:problem: 4x |	!	!	!	!	!	!	!	!	!	!	!	!	!	!	!	!	!	!	!	!	!	!	!	!	!	!	!
!	!	!	!	!	!	!	!	!LO:MO:null:mod=<	!	!	!	!	!	!	!	!	!	!	!	!	!	!	!	!	!	!	!	!	!	!
!	!	!	!	!	!	!	!	!	!	!	!	!	!	!	!	!	!	!	!	!	!	!	!LO:SIC:s=[4aa\:v	!	!	!	!	!	!	!
!	!	!	!	!	!	!	!	!	!	!	!	!	!	!	!	!	!	!	!	!	!	!	!	!	!LO:SIC:s=[4aa\:v	!	!	!	!	!
8C#X/L	.	.	16a|\LL	.	16cc#X|\LL	<	16ee|\LL	.	8C#X/	Ge-	.	8c#X\	Ge-	.	8a\	Ge-	.	.	8ee\	Ge-	.	.	(4aa\	.	4aa\	.	8cc#X\L	.	8ee\L	.
.	.	.	16a\	.	16cc#|\	.	16ee|\	.	.	.	.	.	.	.	.	.	.	.	.	.	.	.	.	.	.	.	.	.	.	.
!	!	!	!	!	!	!	!	!	!	!LO:MO:mod=-ne-	!	!	!LO:MO:mod=-ne-	!	!	!LO:MO:mod=-ne-	!	!	!	!LO:MO:mod=-ne-	!	!	!	!	!	!	!	!	!	!
8AA/J	#	.	16a\	.	16ee|\	.	16gg|\	.	8AA/	-ni-	.	8e\	-ni-	.	8a\	-ni-	.	.	8gg\	-ni-	.	.	.	.	.	.	8ee\J	.	8gg\J	.
.	.	.	16a\JJ	.	16ee|\JJ	.	16gg|\JJ	.	.	.	.	.	.	.	.	.	.	.	.	.	.	.	.	.	.	.	.	.	.	.
*	*	*	*Xtremolo	*	*	*	*	*	*	*	*	*	*	*	*	*	*	*	*	*	*	*	*	*	*	*	*	*	*	*
.	.	.	.	.	.	.	.	.	.	.	.	.	.	.	.	.	.	.	8qqgg/	.	.	.	.	.	.	.	.	.	16qqgg/	.
!	!	!	!	!	!	!	!	!	!	!	!	!	!	!	!	!	!	!	!	!	!	!	!LO:SIC:s=8aa\]:v	!	!LO:SIC:s=8aa\]:v	!	!	!	!	!
!	!	!	!	!	!	!LO:DY:b:t=forto	!	!LO:DY:b:t=fort	!	!LO:MO:mod=-trix,	!	!	!LO:MO:mod=-trix,	!	!	!LO:MO:mod=-trix,	!	!	!	!LO:MO:mod=-trix,	!	!	!	!	!	!	!	!	!	!
!	!	!	!LO:SIC:s=8a\:v	!	!	!	!	!	!	!	!	!	!	!	!	!	!	!	!	!	!	!	!	!	!	!	!	!	!	!
!	!	!	!	!LO:DY:t= :mod=%s	!	!	!	!	!	!	!	!	!	!	!	!	!	!	!	!	!	!	!	!	!	!	!	!	!	!
!	!	!	!	!LO:MO:mod=!LO&colon;DY&colon;ed=	!	!	!	!	!	!	!	!	!	!	!	!	!	!	!	!	!	!	!	!	!	!	!	!	!	!
!	!	!	!	!null	!	!	!	!	!	!	!	!	!	!	!	!	!	!	!	!	!	!	!	!	!	!	!	!	!	!
8r	.	.	8a|\	f	(16ee\LL	[ f	(16gg\LL	[ f	8D\	-trix	.	8d\	-trix	.	8a\	-trix	.	.	8ff#\	-tis	.	.	8aa\)	.	8aa\	.	8dd\	.	8ff#\	.
.	.	.	.	.	16dd\)	.	16ff#\)	.	.	.	.	.	.	.	.	.	.	.	.	.	.	.	.	.	.	.	.	.	.	.
!	!	!LO:DY:t= :mod=%s	!	!	!	!	!	!	!	!	!	!	!	!	!	!	!	!	!	!	!	!	!	!	!	!	!	!	!	!
!	!	!LO:MO:mod=!LO&colon;DY&colon;ed=	!	!	!	!	!	!	!	!	!	!	!	!	!	!	!	!	!	!	!	!	!	!	!	!	!	!	!	!
!	!	!null	!	!	!	!	!	!	!	!	!	!	!	!	!	!	!	!	!	!	!	!	!	!	!	!	!	!	!	!
8D\	.	f	8a\	.	16dd|\	.	16ff#|\	.	8r	.	.	8r	.	.	8r	.	.	.	8r	.	.	.	8r	.	8r	.	8r	.	8r	.
.	.	.	.	.	16dd|\JJ	.	16ff#|\JJ	.	.	.	.	.	.	.	.	.	.	.	.	.	.	.	.	.	.	.	.	.	.	.
!	!	!	!	!	!	!	!	!	!	!	!	!	!	!	!	!	!	!	!	!	!	!	!	!	!LO:LB:g=original	!	!	!	!	!
=40	=40	=40	=40	=40	=40	=40	=40	=40	=40	=40	=40	=40	=40	=40	=40	=40	=40	=40	=40	=40	=40	=40	=40	=40	=40	=40	=40	=40	=40	=40
!	!	!	!	!	!	!	!	!	!LO:MO:mod=!null:null	!	!	!LO:MO:mod=!null:null	!	!	!LO:MO:mod=!null:null	!	!	!	!LO:MO:mod=!null:null	!	!	!	!	!	!	!	!	!	!	!
!	!	!	!	!LO:DY:b:t=fort:color=red	!	!	!	!	!LO:TX:a:t=1	!	!	!LO:TX:a:t=1	!	!	!LO:TX:a:t=1	!	!	!	!LO:TX:a:t=1	!	!	!	!	!	!	!	!	!	!	!
!	!	!	!	!LO:MO:mod=!null:null	!	!	!	!	!	!	!	!	!	!	!	!	!	!	!	!	!	!	!	!	!	!	!	!	!	!
8r	.	.	8r	f	(16ee\LL	.	(16gg\LL	.	2r	.	.	2r	.	.	2r	.	.	.	2r	.	.	.	8r	.	8r	.	2r	.	2r	.
.	.	.	.	.	16dd\)	.	16ff#\)	.	.	.	.	.	.	.	.	.	.	.	.	.	.	.	.	.	.	.	.	.	.	.
!	!	!	!	!	!	!	!	!	!	!	!	!	!	!	!	!	!	!	!	!	!	!	!	!LO:DY:a:t=for	!	!LO:DY:a	!	!	!	!
8D/L	3	.	8a\L	.	16dd|\	.	16ff#|\	.	.	.	.	.	.	.	.	.	.	.	.	.	.	.	8dd/L	f	8aa\L	f	.	.	.	.
.	.	.	.	.	16dd|\JJ	.	16ff#|\JJ	.	.	.	.	.	.	.	.	.	.	.	.	.	.	.	.	.	.	.	.	.	.	.
*	*	*	*	*	*tremolo	*	*tremolo	*	*	*	*	*	*	*	*	*	*	*	*	*	*	*	*	*	*	*	*	*	*	*
!	!	!	!	!	!LO:TX:t=P:problem: 4x staccato	!	!LO:TX:t=P:problem: 4x |	!	!	!	!	!	!	!	!	!	!	!	!	!	!	!	!	!	!	!	!	!	!	!
!	!	!	!	!	!LO:SIC:s=16dd|\LL:v	!	!	!	!	!	!	!	!	!	!	!	!	!	!	!	!	!	!	!	!	!	!	!	!	!
8Cn/	.	.	8a\	.	16dd'\LL	.	16ff#|\LL	.	.	.	.	.	.	.	.	.	.	.	.	.	.	.	8dd/	.	8aa\	.	.	.	.	.
.	.	.	.	.	16dd'\	.	16ff#\	.	.	.	.	.	.	.	.	.	.	.	.	.	.	.	.	.	.	.	.	.	.	.
8C/J	.	.	8a\J	.	16dd'\	.	16ff#\	.	.	.	.	.	.	.	.	.	.	.	.	.	.	.	8dd/J	.	8aa\J	.	.	.	.	.
.	.	.	.	.	16dd'\JJ	.	16ff#\JJ	.	.	.	.	.	.	.	.	.	.	.	.	.	.	.	.	.	.	.	.	.	.	.
*	*	*	*	*	*	*	*Xtremolo	*	*	*	*	*	*	*	*	*	*	*	*	*	*	*	*	*	*	*	*	*	*	*
=41	=41	=41	=41	=41	=41	=41	=41	=41	=41	=41	=41	=41	=41	=41	=41	=41	=41	=41	=41	=41	=41	=41	=41	=41	=41	=41	=41	=41	=41	=41
!	!	!LO:DY:b:t=fort:color=red	!LO:TX:t=P:problem: mixed beam	!	!	!	!	!	!	!	!LO:DY:b:t=forto	!	!	!LO:DY:a:t=forto	!	!	!	!	!	!	!	!	!	!	!LO:TX:t=P:problem: mixed beam	!	!	!LO:DY:b:t=for.	!	!LO:DY:b:t=forto.
!	!	!LO:MO:mod=!null:null	!	!	!	!	!	!	!	!	!	!	!	!	!	!	!	!	!	!	!	!	!	!	!	!	!	!	!	!
!	!	!	!	!	!	!	!	!	!	!	!	!	!	!	!	!	!	!LO:DY:t= :mod=%s	!	!	!	!LO:DY:t= :mod=%s	!	!	!	!	!	!	!	!
!	!	!	!	!	!	!	!	!	!	!	!	!	!	!	!	!	!	!LO:MO:mod=!LO&colon;DY&colon;ed=brack	!	!	!	!LO:MO:mod=!LO&colon;DY&colon;ed=brack	!	!	!	!	!	!	!	!
!	!	!	!	!	!	!	!	!	!	!	!	!	!	!	!	!	!	!null	!	!	!	!null	!	!	!	!	!	!	!	!
8BB/L	3 6	f	8b\L	.	8g/L	.	(16gg\LL	.	4B\	San-	f	4d\	San-	f	4g\	San-	.	f	4dd\	San-	.	f	2dd/	.	(>8bb\L	.	4gg\	f	4ddd\	f
.	.	.	.	.	.	.	16dd\)	.	.	.	.	.	.	.	.	.	.	.	.	.	.	.	.	.	.	.	.	.	.	.
8B\	.	.	8B/	.	16g/L	.	16dd|\	.	.	.	.	.	.	.	.	.	.	.	.	.	.	.	.	.	8d/	.	.	.	.	.
.	3 6	.	.	.	16g/JJ	.	16dd|\JJ	.	.	.	.	.	.	.	.	.	.	.	.	.	.	.	.	.	.	.	.	.	.	.
!	!	!	!	!	!	!	!	!	!	!LO:MO:mod=-cta,	!	!	!LO:MO:mod=-cta,	!	!	!LO:MO:mod=-cta,	!	!	!	!LO:MO:mod=-cta,	!	!	!	!	!	!	!	!	!	!
8A\	.	.	8A/	.	8f#/L	.	(16dd\LL	.	4A\	-cta	.	4d\	-cta	.	4f#\	-cta	.	.	4ccn\	-cta	.	.	.	.	8aa\	.	4ff#\	.	4cccn\	.
.	.	.	.	.	.	.	16cc\)	.	.	.	.	.	.	.	.	.	.	.	.	.	.	.	.	.	.	.	.	.	.	.
8A\J	.	.	8A/J	.	16f#/L	.	16cc|\	.	.	.	.	.	.	.	.	.	.	.	.	.	.	.	.	.	8d/J	.	.	.	.	.
.	.	.	.	.	16f#/JJ	.	16cc|\JJ	.	.	.	.	.	.	.	.	.	.	.	.	.	.	.	.	.	.	.	.	.	.	.
=42	=42	=42	=42	=42	=42	=42	=42	=42	=42	=42	=42	=42	=42	=42	=42	=42	=42	=42	=42	=42	=42	=42	=42	=42	=42	=42	=42	=42	=42	=42
!	!	!	!	!	!	!	!	!	!	!	!	!	!	!	!	!	!	!	!	!	!	!	!	!	!LO:TX:t=P:problem: mixed beam	!	!	!	!	!
.	.	.	.	.	.	.	.	.	.	.	.	.	.	.	.	.	.	.	.	.	.	.	.	.	.	.	.	.	16qqccc/	.
*	*	*	*	*	*	*	*	*	*	*ij	*	*	*ij	*	*	*	*	*	*	*	*	*	*	*	*	*	*	*	*	*
!	!	!	!	!	!	!	!	!	!	!	!	!	!	!	!	!LO:MO:mod=San-	!	!	!	!	!	!	!	!	!	!	!	!	!	!
!	!	!	!	!	!	!	!	!	!	!	!	!	!	!	!	!	!	!	!	!	!	!	!	!	!LO:SIC:s=8gg\L:v	!	!	!	!	!
8G\L	5 3	.	8G/L	.	8d/L	.	(16cc\LL	.	4G\	San-	.	4d\	San-	.	4g\	S(anc)-	.	.	4b\	San-	.	.	2dd/	.	8gg\L)	.	4dd\	.	4bb\	.
.	.	.	.	.	.	.	16b\)	.	.	.	.	.	.	.	.	.	.	.	.	.	.	.	.	.	.	.	.	.	.	.
8G\	.	.	8G/	.	16d/L	.	16b|\	.	.	.	.	.	.	.	.	.	.	.	.	.	.	.	.	.	8d/	.	.	.	.	.
.	.	.	.	.	16d/JJ	.	16b|\JJ	.	.	.	.	.	.	.	.	.	.	.	.	.	.	.	.	.	.	.	.	.	.	.
.	.	.	.	.	.	.	.	.	.	.	.	.	.	.	.	.	.	.	.	.	.	.	.	.	.	.	.	.	16qqbb/	.
!	!	!	!	!	!	!	!	!	!	!	!	!	!	!	!	!LO:MO:mod=-cta	!	!	!	!	!	!	!	!	!	!	!	!	!	!
!	!	!	!	!	!	!	!	!	!	!	!	!	!	!	!	!	!	!	!	!	!	!	!	!	!LO:SIC:s=8dd\:v	!	!	!	!	!
8C/	6 4	.	8c/	.	8f#/L	.	(16b\LL	.	4C/	-cta	.	4d\	-cta	.	4f#\	-ta	.	.	4a\	-cta	.	.	.	.	(>8dd\	.	4ff#\	.	4aa\	.
.	.	.	.	.	.	.	16a\)	.	.	.	.	.	.	.	.	.	.	.	.	.	.	.	.	.	.	.	.	.	.	.
!	!	!	!	!	!	!	!	!	!	!	!	!	!	!	!	!	!	!	!	!	!	!	!	!	!LO:SIC:s=8d/J):v	!	!	!	!	!
8C/J	.	.	8c/J	.	16f#/L	.	16a|\	.	.	.	.	.	.	.	.	.	.	.	.	.	.	.	.	.	8d/J	.	.	.	.	.
.	.	.	.	.	16f#/JJ	.	16a|\JJ	.	.	.	.	.	.	.	.	.	.	.	.	.	.	.	.	.	.	.	.	.	.	.
*	*	*	*	*	*	*	*	*	*	*Xij	*	*	*Xij	*	*	*	*	*	*	*	*	*	*	*	*	*	*	*	*	*
!	!	!	!	!	!	!	!	!	!	!	!	!	!	!	!	!	!	!	!LO:LB:g=original	!	!	!	!	!	!	!	!	!	!	!
=43	=43	=43	=43	=43	=43	=43	=43	=43	=43	=43	=43	=43	=43	=43	=43	=43	=43	=43	=43	=43	=43	=43	=43	=43	=43	=43	=43	=43	=43	=43
!	!	!	!	!	!	!	!	!	!	!	!	!	!	!	!	!	!	!	!	!	!	!	!	!	!LO:TX:t=P:problem: mixed beam	!	!	!	!	!
.	.	.	.	.	.	.	.	.	.	.	.	.	.	.	.	.	.	.	.	.	.	.	.	.	.	.	.	.	16qqeee/	.
!	!	!	!	!	!	!	!	!	!	!	!	!	!	!	!	!	!	!	!	!	!	!	!	!	!LO:SIC:s=(8bb\L:v	!	!	!	!	!
8BB/L	3 6	.	8B/L	.	8g/L	.	(16g\LL	.	4B\	Vir-	.	4d\	Vir-	.	4g\	Vir-	.	.	4dd\	Vir-	.	.	2dd/	.	8bb\L	.	4gg\	.	4ddd\	.
.	.	.	.	.	.	.	16dd\)	.	.	.	.	.	.	.	.	.	.	.	.	.	.	.	.	.	.	.	.	.	.	.
8B\	.	.	8B/	.	16g/L	.	16dd|\	.	.	.	.	.	.	.	.	.	.	.	.	.	.	.	.	.	8d/	.	.	.	.	.
.	.	.	.	.	16g/JJ	.	16dd|\JJ	.	.	.	.	.	.	.	.	.	.	.	.	.	.	.	.	.	.	.	.	.	.	.
.	.	.	.	.	.	.	.	.	.	.	.	.	.	.	.	.	.	.	.	.	.	.	.	.	.	.	.	.	16qqddd/	.
!	!	!	!	!	!	!	!	!	!	!	!	!	!	!	!	!	!	!	!	!	!	!	!	!	!LO:SIC:s=8aa\:v	!	!	!	!	!
8A\	3 6	.	8A/	.	8f#/L	.	(16dd\LL	.	4A\	-go	.	4d\	-go	.	4f#\	-go	.	.	4cc\	-go	.	.	.	.	8aa\)	.	4ff#\	.	4ccc\	.
.	.	.	.	.	.	.	16cc\)	.	.	.	.	.	.	.	.	.	.	.	.	.	.	.	.	.	.	.	.	.	.	.
8A\J	.	.	8A/J	.	16f#/L	.	16cc|\	.	.	.	.	.	.	.	.	.	.	.	.	.	.	.	.	.	8d/J	.	.	.	.	.
.	.	.	.	.	16f#/JJ	.	16cc|\JJ	.	.	.	.	.	.	.	.	.	.	.	.	.	.	.	.	.	.	.	.	.	.	.
!	!	!	!	!	!	!	!	!	!	!	!	!	!	!	!LO:LB:g=original	!	!	!	!	!	!	!	!	!	!	!	!	!	!LO:LB:g=original	!
=44	=44	=44	=44	=44	=44	=44	=44	=44	=44	=44	=44	=44	=44	=44	=44	=44	=44	=44	=44	=44	=44	=44	=44	=44	=44	=44	=44	=44	=44	=44
!	!	!	!	!	!	!	!	!	!	!	!	!	!	!	!	!	!	!	!	!	!	!	!	!	!LO:TX:t=P:problem: mixed beam	!	!	!	!	!
.	.	.	.	.	.	.	.	.	.	.	.	.	.	.	.	.	.	.	.	.	.	.	.	.	.	.	.	.	16qqccc/	.
!	!	!	!	!	!	!	!	!	!	!LO:MO:mod=vir-	!	!	!LO:MO:mod=vir-	!	!	!LO:MO:mod=vir-	!	!	!	!LO:MO:mod=vir-	!	!	!	!	!	!	!	!	!	!
!	!	!	!	!	!	!	!	!	!	!	!	!	!	!	!	!	!	!	!	!	!	!	!	!	!LO:SIC:s=8gg\L:v	!	!	!	!	!
8G\L	3 5	.	8G/L	.	8d/L	.	(16cc\LL	.	8.G\	Vir-	.	8.d\	Vir-	.	8.g\	Vir-	.	.	8.b\	Vir-	.	.	2dd/	.	(8gg\L	.	4dd\	.	4bb\	.
.	.	.	.	.	.	.	16b\)	.	.	.	.	.	.	.	.	.	.	.	.	.	.	.	.	.	.	.	.	.	.	.
8G\	.	.	8G/	.	16d/L	.	16b|\	.	.	.	.	.	.	.	.	.	.	.	.	.	.	.	.	.	8d/	.	.	.	.	.
.	.	.	.	.	16d/JJ	.	16b|\JJ	.	16G\	-gi-	.	16d\	-gi-	.	16g\	-gi-	.	.	16b\	-gi-	.	.	.	.	.	.	.	.	.	.
.	.	.	.	.	.	.	.	.	.	.	.	.	.	.	.	.	.	.	.	.	.	.	.	.	.	.	.	.	16qqbb/	.
!	!	!	!	!	!	!	!	!	!	!LO:MO:mod=-num,	!	!	!LO:MO:mod=-num,	!	!	!LO:MO:mod=-num,	!	!	!	!LO:MO:mod=-num,	!	!	!	!	!	!	!	!	!	!
8C/	6 4	.	8c/	.	8f#/L	.	(16b/LL	.	4C/	-num	.	4d\	-num	.	4f#\	-num	.	.	4a\	-num	.	.	.	.	8dd\	.	4ff#\	.	4aa\	.
.	.	.	.	.	.	.	16a/)	.	.	.	.	.	.	.	.	.	.	.	.	.	.	.	.	.	.	.	.	.	.	.
8C/J	.	.	8c/J	.	16f#/L	.	16a|/	.	.	.	.	.	.	.	.	.	.	.	.	.	.	.	.	.	8d/J)	.	.	.	.	.
.	.	.	.	.	16f#/JJ	.	16a|/JJ	.	.	.	.	.	.	.	.	.	.	.	.	.	.	.	.	.	.	.	.	.	.	.
!	!	!	!	!	!	!	!LO:LB:g=original	!	!	!	!	!	!	!	!	!	!	!	!	!	!	!	!	!	!	!	!	!	!	!
=45	=45	=45	=45	=45	=45	=45	=45	=45	=45	=45	=45	=45	=45	=45	=45	=45	=45	=45	=45	=45	=45	=45	=45	=45	=45	=45	=45	=45	=45	=45
!	!	!	!	!	!	!	!LO:TX:t=P:problem: mixed beam	!	!	!	!	!	!	!	!	!	!	!	!	!	!	!	!	!	!	!	!	!	!	!
!	!	!	!	!	!LO:SIC:s=(16g/LL:v	!	!	!	!	!	!	!	!	!	!	!	!	!	!	!	!	!	!	!	!	!	!	!	!	!
8r	.	.	8r	.	(16f#/LL	.	(16/LL	.	8r	.	.	8r	.	.	8r	.	.	.	8r	.	.	.	4g/	.	4gg\	.	4b/	.	8g/L	.
.	.	.	.	.	16b/)	.	16gg\)	.	.	.	.	.	.	.	.	.	.	.	.	.	.	.	.	.	.	.	.	.	.	.
8GG/L	3	.	8d\L	.	16b|/	.	16gg|\	.	8G\L	o-	.	8d\	o-	.	8b\	o-	.	.	8gg\	o-	.	.	.	.	.	.	.	.	8gg\J	.
.	.	.	.	.	16b|/JJ	.	16gg|\JJ	.	.	.	.	.	.	.	.	.	.	.	.	.	.	.	.	.	.	.	.	.	.	.
!	!	!	!	!	!	!	!	!	!	!	!	!	!	!	!	!	!	!	!	!	!	!	!	!	!	!	!	!	!LO:SIC:s=16qqgg/:v	!
.	.	.	.	.	.	.	.	.	.	.	.	.	.	.	.	.	.	.	.	.	.	.	.	.	.	.	16qqb/	.	8qqgg/	.
8D/	.	.	8d\	.	(16b/LL	.	(16gg\LL	.	8D\J	.	.	8r	.	.	8r	.	.	.	8r	.	.	.	4r	.	4r	.	4a/	.	4ff#\	.
.	.	.	.	.	16a/)	.	16ff#\)	.	.	.	.	.	.	.	.	.	.	.	.	.	.	.	.	.	.	.	.	.	.	.
!	!	!	!	!	!	!	!	!	!	!LO:MO:mod=-ra,	!	!	!LO:MO:mod=-ra,	!	!	!LO:MO:mod=-ra,	!	!	!	!LO:MO:mod=-ra,	!	!	!	!	!	!	!	!	!	!
8D#X/J	.	.	8B\J	.	16a|/	.	16ff#|\	.	8D#X\	-ra	.	8B\	-ra	.	8a\	-ra	.	.	8ff#\	-ra	.	.	.	.	.	.	.	.	.	.
.	.	.	.	.	16a|/JJ	.	16ff#|\JJ	.	.	.	.	.	.	.	.	.	.	.	.	.	.	.	.	.	.	.	.	.	.	.
!LO:LB:g=original	!	!	!	!	!LO:LB:g=original	!	!	!	!	!	!	!LO:LB:g=original	!	!	!	!	!	!	!	!	!	!	!	!	!	!	!	!	!	!
=46	=46	=46	=46	=46	=46	=46	=46	=46	=46	=46	=46	=46	=46	=46	=46	=46	=46	=46	=46	=46	=46	=46	=46	=46	=46	=46	=46	=46	=46	=46
!	!	!	!	!	!	!	!	!	!	!	!	!	!	!	!	!	!	!	!	!	!	!	!	!	!	!	!	!	!LO:SIC:s=16qqff#/:v	!
.	.	.	.	.	.	.	.	.	.	.	.	.	.	.	.	.	.	.	.	.	.	.	.	.	.	.	.	.	8qqff#/	.
!	!	!	!	!	!	!	!	!	!	!	!	!	!	!	!	!	!	!	!	!	!	!	!LO:MO:mod=!null:null	!	!LO:MO:mod=!null:null	!	!	!	!	!
!	!	!	!	!	!	!	!	!	!	!	!	!	!	!	!	!	!	!	!	!	!	!	!LO:N:vis=0	!	!LO:N:vis=0	!	!	!	!	!
8r	.	.	8r	.	(16a/LL	.	(16ff#\LL	.	8r	.	.	8r	.	.	8r	.	.	.	8r	.	.	.	1r	.	1r	.	4g/	.	4ee\	.
.	.	.	.	.	16g/)	.	16ee\)	.	.	.	.	.	.	.	.	.	.	.	.	.	.	.	.	.	.	.	.	.	.	.
!	!	!	!	!	!LO:SIC:s=16g|/:v	!	!	!	!	!	!	!	!	!	!	!	!	!	!	!	!	!	!	!	!	!	!	!	!	!
8E/L	.	.	8B/L	.	16g'/	.	16ee|\	.	8E/L	o-	.	8B\	o-	.	8g\	o-	.	.	8ee\	o-	.	.	.	.	.	.	.	.	.	.
!	!	!	!	!	!LO:SIC:s=16g|/JJ:v	!	!	!	!	!	!	!	!	!	!	!	!	!	!	!	!	!	!	!	!	!	!	!	!	!
.	.	.	.	.	16g'/JJ	.	16ee|\JJ	.	.	.	.	.	.	.	.	.	.	.	.	.	.	.	.	.	.	.	.	.	.	.
!	!	!	!	!	!	!	!	!	!	!	!	!	!	!	!	!	!	!	!	!	!	!	!	!	!	!	!	!	!LO:SIC:s=16qqee/:v	!
.	.	.	.	.	.	.	.	.	.	.	.	.	.	.	.	.	.	.	.	.	.	.	.	.	.	.	16qqg/	.	8qqee/	.
8BB/	.	.	8B/	.	(16g/LL	.	(16ee\LL	.	8BB/J	.	.	8r	.	.	8r	.	.	.	8r	.	.	.	.	.	.	.	4f#/	.	4dd\	.
.	.	.	.	.	16fn/)	.	16dd\)	.	.	.	.	.	.	.	.	.	.	.	.	.	.	.	.	.	.	.	.	.	.	.
!	!	!	!	!	!	!	!	!	!	!LO:MO:mod=-ra,	!	!	!LO:MO:mod=-ra,	!	!	!LO:MO:mod=-ra,	!	!	!	!LO:MO:mod=-ra,	!	!	!	!	!	!	!	!	!	!
!	!	!	!	!	!LO:SIC:s=16f| 16G/:v	!	!	!	!	!	!	!	!	!	!	!	!	!	!	!	!	!	!	!	!	!	!	!	!	!
!	!	!	!	!	!	!	!	!	!	!	!	!	!	!	!LO:SIC:s=8fn\:v	!	!	!	!	!	!	!	!	!	!	!	!	!	!	!
8Dn/J	.	.	8B/J	.	16f 16G/	.	16dd|\	.	8Dn\	-ra	.	8B\	-ra	.	8fn\	-ra	.	.	8dd\	-ra	.	.	.	.	.	.	.	.	.	.
!	!	!	!	!	!LO:SIC:s=16f|JJ 16G/:v	!	!	!	!	!	!	!	!	!	!	!	!	!	!	!	!	!	!	!	!	!	!	!	!	!
.	.	.	.	.	16fJJ 16G/	.	16dd|\JJ	.	.	.	.	.	.	.	.	.	.	.	.	.	.	.	.	.	.	.	.	.	.	.
!	!	!	!	!	!	!	!	!	!LO:LB:g=original	!	!	!	!	!	!	!	!	!	!	!	!	!	!	!	!	!	!	!	!	!
=47	=47	=47	=47	=47	=47	=47	=47	=47	=47	=47	=47	=47	=47	=47	=47	=47	=47	=47	=47	=47	=47	=47	=47	=47	=47	=47	=47	=47	=47	=47
!	!	!	!	!	!	!	!	!	!	!	!	!	!	!	!	!	!	!	!	!	!	!	!	!	!	!	!LO:SIC:s=16qqf#/:v	!	!	!
!	!	!	!	!	!	!	!	!	!	!	!	!	!	!	!	!	!	!	!	!	!	!	!	!	!	!	!	!	!LO:SIC:s=16qqdd/:v	!
.	.	.	.	.	.	.	.	.	.	.	.	.	.	.	.	.	.	.	.	.	.	.	.	.	.	.	8qqf#/	.	8qqdd/	.
8r	.	.	8r	.	(16f#LL 16G/	.	(16dd\LL	.	8r	.	.	8r	.	.	8r	.	.	.	8r	.	.	.	.	.	.	.	4e/	.	4cc\	.
.	.	.	.	.	16e/)	.	16cc\)	.	.	.	.	.	.	.	.	.	.	.	.	.	.	.	.	.	.	.	.	.	.	.
!	!	!	!	!	!	!	!	!	!	!	!	!	!	!	!	!LO:MO:mod=o-	!	!	!	!	!	!	!	!	!	!	!	!	!	!
8C/L	.	.	8G/L	.	16e|/	.	16cc|\	.	8C/L	o-	.	8G/	o-	.	8e\	pro	.	.	8cc\	o-	.	.	.	.	.	.	.	.	.	.
.	.	.	.	.	16e|/JJ	.	16cc|\JJ	.	.	.	.	.	.	.	.	.	.	.	.	.	.	.	.	.	.	.	.	.	.	.
!	!	!	!	!	!	!	!	!	!	!	!	!	!	!	!	!	!	!	!	!	!	!	!	!	!	!	!LO:SIC:s=16qqe/:v	!	!	!
!	!	!	!	!	!	!	!	!	!	!	!	!	!	!	!	!	!	!	!	!	!	!	!	!	!	!	!	!	!LO:SIC:s=16qqcc/:v	!
.	.	.	.	.	.	.	.	.	.	.	.	.	.	.	.	.	.	.	.	.	.	.	.	.	.	.	8qqe/	.	8qqcc/	.
8G\	.	.	8g\	.	(16e/LL	.	(16cc\LL	.	8G\J	.	.	8r	.	.	8r	.	.	.	8r	.	.	.	.	.	.	.	4d/	.	4b\	.
.	.	.	.	.	16d/)	.	16b\)	.	.	.	.	.	.	.	.	.	.	.	.	.	.	.	.	.	.	.	.	.	.	.
!	!	!	!	!	!	!	!	!	!	!	!	!	!	!	!	!LO:MO:mod=.	!	!	!	!	!	!	!	!	!	!	!	!	!	!
!	!	!	!	!	!LO:SIC:s=16d|/:v	!	!	!	!	!	!	!	!	!	!	!	!	!	!	!	!	!	!	!	!	!	!	!	!	!
8G#X\J	.	.	8e\J	.	16d'/	.	16b|\	.	8G#X\	.	.	8e\	.	.	8d\	no-	.	.	8b\	.	.	.	.	.	.	.	.	.	.	.
!	!	!	!	!	!LO:SIC:s=16d|/JJ:v	!	!	!	!	!	!	!	!	!	!	!	!	!	!	!	!	!	!	!	!	!	!	!	!	!
.	.	.	.	.	16d'/JJ	.	16b|\JJ	.	.	.	.	.	.	.	.	.	.	.	.	.	.	.	.	.	.	.	.	.	.	.
=48	=48	=48	=48	=48	=48	=48	=48	=48	=48	=48	=48	=48	=48	=48	=48	=48	=48	=48	=48	=48	=48	=48	=48	=48	=48	=48	=48	=48	=48	=48
!	!	!	!	!	!	!	!	!	!	!	!	!	!	!	!	!	!	!	!	!	!	!	!	!	!	!	!	!	!LO:SIC:s=16qqb/:v	!
.	.	.	.	.	.	.	.	.	.	.	.	.	.	.	.	.	.	.	.	.	.	.	.	.	.	.	.	.	8qqb/	.
!	!	!	!	!	!	!	!	!	!	!	!	!	!	!	!	!LO:MO:mod=-ra	!	!	!	!	!	!	!	!	!	!	!	!	!	!
8r	.	.	8r	.	(16d/LL	.	(16b/LL	.	8A\	-ra	.	8d\	-ra	.	8c\	-bis	.	.	8a\	-ra	.	.	8r	.	8r	.	4c/	.	4a/	.
.	.	.	.	.	16c/)	.	16a/)	.	.	.	.	.	.	.	.	.	.	.	.	.	.	.	.	.	.	.	.	.	.	.
!	!	!	!	!	!LO:SIC:s=16c|/:v	!	!	!	!	!	!	!	!	!	!	!	!	!	!	!	!	!	!	!	!	!	!	!	!	!
!	!	!	!	!	!	!	!	!	!	!	!	!	!	!	!	!	!	!	!	!	!	!	!LO:SIC:s=8dd'/L:v	!	!	!	!	!	!	!
8A\L	.	.	8d\	.	16c'/	.	16a|/	.	8r	.	.	8r	.	.	8r	.	.	.	8r	.	.	.	8dd/L	.	8aa'\L	.	.	.	.	.
!	!	!	!	!	!LO:SIC:s=16c|/JJ:v	!	!	!	!	!	!	!	!	!	!	!	!	!	!	!	!	!	!	!	!	!	!	!	!	!
.	.	.	.	.	16c'/JJ	.	16a|/JJ	.	.	.	.	.	.	.	.	.	.	.	.	.	.	.	.	.	.	.	.	.	.	.
*	*	*	*	*	*	*	*tremolo	*	*	*	*	*	*	*	*	*	*	*	*	*	*	*	*	*	*	*	*	*	*	*
!	!	!	!LO:LB:g=original	!	!LO:TX:t=P:problem: 4x staccato	!	!LO:TX:t=P:problem: 4x |	!	!	!	!	!	!	!	!	!	!	!	!	!	!	!	!	!	!	!	!	!	!	!
!	!	!	!	!	!LO:SIC:s=16c|/LL:v	!	!	!	!	!	!	!	!	!	!	!	!	!	!	!	!	!	!	!	!	!	!	!	!	!
!	!	!	!	!	!	!	!	!	!	!	!	!	!	!	!	!	!	!	!	!	!	!	!LO:SIC:s=8dd'/:v	!	!	!	!	!	!	!
8F#\	.	.	8d\L	.	16c'/LL	.	16a|/LL	.	4r	.	.	4r	.	.	4r	.	.	.	4r	.	.	.	8dd/	.	8aa'\	.	4r	.	4r	.
.	.	.	.	.	16c'/	.	16a/	.	.	.	.	.	.	.	.	.	.	.	.	.	.	.	.	.	.	.	.	.	.	.
!	!	!	!	!	!	!	!	!	!	!	!	!	!	!	!	!	!	!	!	!	!	!	!LO:SIC:s=8dd'/J:v	!	!	!	!	!	!	!
8D\J	.	.	8d\J	.	16c'/	.	16a/	.	.	.	.	.	.	.	.	.	.	.	.	.	.	.	8dd/J	.	8aa'\J	.	.	.	.	.
.	.	.	.	.	16c'/JJ	.	16a/JJ	.	.	.	.	.	.	.	.	.	.	.	.	.	.	.	.	.	.	.	.	.	.	.
*	*	*	*	*	*	*	*Xtremolo	*	*	*	*	*	*	*	*	*	*	*	*	*	*	*	*	*	*	*	*	*	*	*
*	*	*	*	*	*Xtremolo	*	*	*	*	*	*	*	*	*	*	*	*	*	*	*	*	*	*	*	*	*	*	*	*	*
=49	=49	=49	=49	=49	=49	=49	=49	=49	=49	=49	=49	=49	=49	=49	=49	=49	=49	=49	=49	=49	=49	=49	=49	=49	=49	=49	=49	=49	=49	=49
!	!	!	!	!	!LO:TX:t=P:problem: mixed beam	!	!LO:TX:t=P:problem: mixed beam	!	!	!	!	!	!	!	!	!	!	!	!	!	!	!	!	!	!	!	!	!	!	!
8G\L	.	.	8d\L	.	16B|/LL	.	16g|/LL	.	8r	.	.	8r	.	.	8r	.	.	.	8r	.	.	.	4gg\	.	4bb\	.	8g/L	.	8gg\L	.
.	.	.	.	.	16B|/	.	16g|/	.	.	.	.	.	.	.	.	.	.	.	.	.	.	.	.	.	.	.	.	.	.	.
8C/	.	.	8e\	.	16cc|\	.	16ee|\	.	8c\	pro	.	8e\	pro	.	8cc\	pro	.	.	8ee\	pro	.	.	.	.	.	.	8cc/	.	8ee\	.
.	.	.	.	.	16cc|\JJ	.	16ee|\JJ	.	.	.	.	.	.	.	.	.	.	.	.	.	.	.	.	.	.	.	.	.	.	.
!	!	!	!	!	!LO:TX:t=P:problem: mixed beam	!	!	!	!LO:TX:t=P:problem: mixed beam	!	!	!	!	!	!LO:TX:t=P:problem: mixed beam	!	!	!	!	!	!	!	!	!	!	!	!	!	!	!
8D/	.	.	8d\	.	16b|\LL	.	16dd|\LL	.	8d\L	no-	.	4d\	no-	.	8b\L	no-	.	.	8dd\L	no-	.	.	8r	.	8r	.	8b/	.	8dd\	.
.	.	.	.	.	16b|\	.	16dd|\	.	.	.	.	.	.	.	.	.	.	.	.	.	.	.	.	.	.	.	.	.	.	.
!	!	!	!	!	!	!	!LO:TX:t=P:problem: mixed beam	!	!	!	!	!	!	!	!	!	!	!	!	!	!	!	!	!	!	!	!	!	!	!
!	!	!	!	!	!	!	!	!	!	!	!	!	!	!	!	!	!	!	!	!	!	!	!	!	!	!	!LO:SIC:s=8a/J:v	!	!	!
8DD/J	.	.	8d\J	.	16c|/	.	16f#|/	.	8D/J	.	.	.	.	.	8c/J	.	.	.	8f#/J	.	.	.	8dd/	.	8aa\	.	8g/J	.	8cc\J	.
.	.	.	.	.	16c|/JJ	.	16f#|/JJ	.	.	.	.	.	.	.	.	.	.	.	.	.	.	.	.	.	.	.	.	.	.	.
=50	=50	=50	=50	=50	=50	=50	=50	=50	=50	=50	=50	=50	=50	=50	=50	=50	=50	=50	=50	=50	=50	=50	=50	=50	=50	=50	=50	=50	=50	=50
!	!	!	!	!	!LO:TX:t=P:problem: mixed beam	!	!LO:TX:t=P:problem: mixed beam	!	!	!	!	!	!	!	!	!	!	!	!	!	!	!	!	!LO:DY:a:t=pia	!	!	!	!	!	!
!	!	!	!	!	!	!	!	!	!	!LO:MO:mod=-bis,	!	!	!LO:MO:mod=-bis,	!	!	!LO:MO:mod=-bis,	!	!	!	!LO:MO:mod=-bis,	!	!	!	!	!	!	!	!	!	!
!	!	!	!	!	!	!	!	!	!	!	!	!	!	!	!	!	!	!	!	!	!	!	!	!LO:MO:mod=!null:null	!	!	!	!	!	!
!	!	!	!	!	!	!	!	!	!	!	!	!	!	!	!	!	!	!	!	!	!	!	!	!	!	!	!LO:SIC:s=8b/L:v	!	!	!
8GG/L	.	.	8d\L	.	16B|/LL	.	16g|/LL	.	8G\	-bis	.	8d\	-bis	.	8B/	-bis	.	.	8g\	-bis	.	.	4gg\	p	4bb\	.	8a/L	.	8b\L	.
.	.	.	.	.	16B|/	.	16g|/	.	.	.	.	.	.	.	.	.	.	.	.	.	.	.	.	.	.	.	.	.	.	.
!	!	!	!	!	!	!	!	!	!	!	!	!	!	!	!	!	!	!	!	!	!	!	!	!	!	!	!	!	!LO:SIC:s=8ee\:v	!
!	!	!	!	!	!	!	!	!	!	!	!	!	!	!	!	!	!	!	!	!	!	!	!	!	!	!	!LO:SIC:s=8cc/:v	!	!	!
8C/	.	.	8e\	.	16cc|\	.	16ee|\	.	8c\	pro	.	8e\	pro	.	8cc\	pro	.	.	8ee\	pro	.	.	.	.	.	.	8dd/	.	8dd\	.
.	.	.	.	.	16cc|\JJ	.	16ee|\JJ	.	.	.	.	.	.	.	.	.	.	.	.	.	.	.	.	.	.	.	.	.	.	.
!	!	!	!	!	!LO:TX:t=P:problem: mixed beam	!	!	!	!LO:TX:t=P:problem: mixed beam	!	!	!	!	!	!LO:TX:t=P:problem: mixed beam	!	!	!	!	!	!	!	!	!	!	!	!	!	!	!
8D/	.	.	8d\	.	16b|\LL	.	16dd|\LL	.	8d\L	no-	.	4d\	no-	.	8b\L	no-	.	.	8dd\L	no-	.	.	8r	.	8r	.	8b/	.	8dd\	.
.	.	.	.	.	16b|\	.	16dd|\	.	.	.	.	.	.	.	.	.	.	.	.	.	.	.	.	.	.	.	.	.	.	.
!	!	!	!	!	!	!	!LO:TX:t=P:problem: mixed beam	!	!	!	!	!	!	!	!	!	!	!	!	!	!	!	!	!	!	!	!	!	!	!
8DD/J	.	.	8d\J	.	16c|/	.	16f#|/	.	8D/J	.	.	.	.	.	8c/J	.	.	.	8f#/J	.	.	.	8dd/	.	8aa\	.	8dd/J	.	8ff#\J	.
.	.	.	.	.	16c|/JJ	.	16f#|/JJ	.	.	.	.	.	.	.	.	.	.	.	.	.	.	.	.	.	.	.	.	.	.	.
=51	=51	=51	=51	=51	=51	=51	=51	=51	=51	=51	=51	=51	=51	=51	=51	=51	=51	=51	=51	=51	=51	=51	=51	=51	=51	=51	=51	=51	=51	=51
!	!	!	!	!LO:DY:a:t=pia:color=red	!	!LO:DY:a:t=pia	!	!LO:DY:a:t=pia	!	!	!	!	!	!	!	!	!	!	!	!	!	!	!	!	!	!LO:DY:a:t=pia	!	!	!	!
!	!	!	!	!	!	!	!	!	!	!LO:MO:mod=-bis.	!	!	!LO:MO:mod=-bis.	!	!	!LO:MO:mod=-bis.	!	!	!	!LO:MO:mod=-bis.	!	!	!	!	!	!	!	!	!	!
!	!	!LO:DY:t= :mod=%s	!	!	!	!	!	!	!	!	!	!	!	!	!	!	!	!	!	!	!	!	!	!LO:DY:t= :mod=%s	!	!	!	!	!	!
!	!	!LO:MO:mod=!LO&colon;DY&colon;ed=	!	!	!	!	!	!	!	!	!	!	!	!	!	!	!	!	!	!	!	!	!	!LO:MO:mod=!LO&colon;DY&colon;ed=	!	!	!	!	!	!
!	!	!null	!	!	!	!	!	!	!	!	!	!	!	!	!	!	!	!	!	!	!	!	!	!null	!	!	!	!	!	!
4GG/	.	p	[>2G/	p	4B/	p	(4g/	p	4G\	-bis	.	4d\	-bis	.	4B/	-bis	.	.	4g\	-bis	.	.	4g/	p	4gg\	p	4b\	.	4gg\	.
!LO:MO:mod=!LO&colon;TX&colon;b&colon;i&colon;t=pedal	!	!	!	!	!	!	!	!	!	!	!	!	!	!	!	!	!	!	!	!	!	!	!	!	!	!	!	!	!	!
!LO:TX:b:t=pedal	!	!LO:DY:a:t=pia:color=red	!	!	!	!	!	!	!	!	!	!	!	!	!	!	!	!	!	!	!	!	!	!	!	!	!	!	!	!
!	!	!LO:MO:mod=!null:null	!	!	!	!	!	!	!	!	!	!	!	!	!	!	!	!	!	!	!	!	!	!	!	!	!	!	!	!
8GG/L	.	p	.	.	(8c/L	.	8f#/L	.	4r	.	.	4r	.	.	4r	.	.	.	4r	.	.	.	8g/L	.	8gg\L	.	4r	.	4r	.
8GG/J	.	.	.	.	8d/J)	.	8fn/J	.	.	.	.	.	.	.	.	.	.	.	.	.	.	.	8g/J	.	8gg\J	.	.	.	.	.
=52	=52	=52	=52	=52	=52	=52	=52	=52	=52	=52	=52	=52	=52	=52	=52	=52	=52	=52	=52	=52	=52	=52	=52	=52	=52	=52	=52	=52	=52	=52
!	!	!	!	!	!	!	!	!	!LO:MO:mod=!null:null	!	!	!LO:MO:mod=!null:null	!	!	!LO:MO:mod=!null:null	!	!	!	!LO:MO:mod=!null:null	!	!	!	!	!	!	!	!	!	!	!
!	!	!	!	!	!	!	!	!	!LO:TX:a:t=2	!	!	!LO:TX:a:t=2	!	!	!LO:TX:a:t=2	!	!	!	!LO:TX:a:t=2	!	!	!	!	!	!	!	!	!	!	!
!	!	!	!	!	!	!	!	!	!LO:MO:mod=!null:null	!	!	!LO:MO:mod=!null:null	!	!	!LO:MO:mod=!null:null	!	!	!	!LO:MO:mod=!null:null	!	!	!	!	!	!	!	!LO:MO:mod=!null:null	!	!LO:MO:mod=!null:null	!
!	!	!	!	!	!	!	!	!	!LO:N:vis=0	!	!	!LO:N:vis=0	!	!	!LO:N:vis=0	!	!	!	!LO:N:vis=0	!	!	!	!	!	!	!	!LO:N:vis=0	!	!LO:N:vis=0	!
4C/	.	.	8G/]	.	(8c/L	.	8e/L	.	1r	.	.	1r	.	.	1r	.	.	.	1r	.	.	.	8g/	.	8gg\	.	1r	.	1r	.
.	.	.	8r	.	8e/	.	8cc/	.	.	.	.	.	.	.	.	.	.	.	.	.	.	.	8r	.	8r	.	.	.	.	.
4D\	.	.	8r	.	8c/)	.	8a/	.	.	.	.	.	.	.	.	.	.	.	.	.	.	.	8r	.	8r	.	.	.	.	.
!	!	!	!	!LO:DY:b:color=red	!	!	!	!	!	!	!	!	!	!	!	!	!	!	!	!	!	!	!	!	!	!LO:DY:a	!	!	!	!
!	!	!	!	!LO:MO:mod=pp	!	!	!	!	!	!	!	!	!	!	!	!	!	!	!	!	!	!	!	!	!	!	!	!	!	!
!	!	!	!	!	!	!	!	!	!	!	!	!	!	!	!	!	!	!	!	!	!	!	!	!LO:DY:t= :mod=%s	!	!	!	!	!	!
!	!	!	!	!	!	!	!	!	!	!	!	!	!	!	!	!	!	!	!	!	!	!	!	!LO:MO:mod=!LO&colon;DY&colon;ed=brack	!	!	!	!	!	!
!	!	!	!	!	!	!	!	!	!	!	!	!	!	!	!	!	!	!	!	!	!	!	!	!null	!	!	!	!	!	!
.	.	.	8d\	ppp	8A/J	.	8f#X/J)	.	.	.	.	.	.	.	.	.	.	.	.	.	.	.	8dd/	pp	8aa\	pp	.	.	.	.
=53	=53	=53	=53	=53	=53	=53	=53	=53	=53	=53	=53	=53	=53	=53	=53	=53	=53	=53	=53	=53	=53	=53	=53	=53	=53	=53	=53	=53	=53	=53
!	!	!LO:DY:b:color=red	!	!	!	!LO:DY:a	!	!	!	!	!	!	!	!	!	!	!	!	!	!	!	!	!	!	!	!	!	!	!	!
!	!	!LO:MO:mod=!null:null	!	!	!	!	!	!	!	!	!	!	!	!	!	!	!	!	!	!	!	!	!	!	!	!	!	!	!	!
8r	.	ppp	4d\	.	(4c/	pp	(4a/	pp	.	.	.	.	.	.	.	.	.	.	.	.	.	.	4dd/	.	4aa\	.	.	.	.	.
!	!	!LO:DY:t= :mod=%s	!	!	!	!	!	!	!	!	!	!	!	!	!	!	!	!	!	!	!	!	!	!	!	!	!	!	!	!
!	!	!LO:MO:mod=!LO&colon;DY&colon;ed=	!	!	!	!	!	!	!	!	!	!	!	!	!	!	!	!	!	!	!	!	!	!	!	!	!	!	!	!
!	!	!null	!	!	!	!	!	!	!	!	!	!	!	!	!	!	!	!	!	!	!	!	!	!	!	!	!	!	!	!
8G\L	.	pp	.	.	.	.	.	.	.	.	.	.	.	.	.	.	.	.	.	.	.	.	.	.	.	.	.	.	.	.
8GG/J	.	.	8d\	.	8B/)	.	8g/)	.	.	.	.	.	.	.	.	.	.	.	.	.	.	.	8gg\	.	8bb\	.	.	.	.	.
8r	.	.	8r	.	8r	.	8r	.	.	.	.	.	.	.	.	.	.	.	.	.	.	.	8r	.	8r	.	.	.	.	.
==	==	==	==	==	==	==	==	==	==	==	==	==	==	==	==	==	==	==	==	==	==	==	==	==	==	==	==	==	==	==
*-	*-	*-	*-	*-	*-	*-	*-	*-	*-	*-	*-	*-	*-	*-	*-	*-	*-	*-	*-	*-	*-	*-	*-	*-	*-	*-	*-	*-	*-	*-
!!!system-decoration: [(s1,s2)][(s3,s4)][(s5,s6,s7,s8)][(s9,s10,s11)]s12
!!!RDF**kern: > = above
!!!RDF**kern: < = below
!!!RDF**kern: | = vertical stroke
!!!filter-modern: sic -sq | shed -e "s/LO:DY:(a|b|rj)/LO:dy:$1/L" | shed -e "s/TX(.*):t=P:/tx$1:t=P:/LG" | modori -m | autostem -r | shed -e "s/yy//" | shed -e "s/^(\d+[\/\\]right)/$1yy/I; s/^(\d+[\/\\]left)/$1yy/I" | shed -k -e "s/[<>]//g"
!!!ENC: Berenika Jozajtis
!!!END: 2020-10-24
!!!ENC: Natalia Wrzos
!!!END: 2022-07-07
!!!EED-modern: Antoni Szymański
!!!END-modern: 2022-09-25
!!!YEC: Copyright 2022 Narodowy Instytut Fryderyka Chopina (https://polishscores.org)
!!!YEM: License CC-BY-4.0 (https://creativecommons.org/licenses/by/4.0)
